;FLAVOR:Marlin
;TIME:878
;Filament used: 0.24641m
;Layer height: 0.12
;MINX:123.3
;MINY:119.29
;MINZ:0.12
;MAXX:176.7
;MAXY:154.89
;MAXZ:4.92
;Generated with Cura_SteamEngine 4.5.0
M140 S80
M105
M190 S80
M104 S200
M105
M109 S200
M82 ;absolute extrusion mode
M201 X500.00 Y500.00 Z100.00 E5000.00 ;Setup machine max acceleration
M203 X500.00 Y500.00 Z10.00 E50.00 ;Setup machine max feedrate
M204 P500.00 R1000.00 T500.00 ;Setup Print/Retract/Travel acceleration
M205 X8.00 Y8.00 Z0.40 E5.00 ;Setup Jerk
M220 S100 ;Reset Feedrate
M221 S100 ;Reset Flowrate

G28 ;Home
M420 S1 Z2 ;Enable ABL using saved Mesh and Fade Height

G92 E0 ;Reset Extruder
G1 Z2.0 F3000 ;Move Z Axis up
G1 X10.1 Y20 Z0.28 F5000.0 ;Move to start position
G1 X10.1 Y200.0 Z0.28 F1500.0 E15 ;Draw the first line
G1 X10.4 Y200.0 Z0.28 F5000.0 ;Move to side a little
G1 X10.4 Y20 Z0.28 F1500.0 E30 ;Draw the second line
G92 E0 ;Reset Extruder
G1 Z2.0 F3000 ;Move Z Axis up

G92 E0
G92 E0
G1 F2700 E-5
;LAYER_COUNT:41
;LAYER:0
M107
G0 F6000 X125.723 Y121.439 Z0.12
;TYPE:SKIRT
G1 F2700 E0
G1 F900 X126.322 Y120.924 E0.01576
G1 X126.97 Y120.473 E0.03152
G1 X127.661 Y120.089 E0.0473
G1 X128.386 Y119.777 E0.06305
G1 X129.139 Y119.54 E0.0788
G1 X129.913 Y119.381 E0.09457
G1 X130.698 Y119.3 E0.11032
G1 X131.1 Y119.29 E0.11834
G1 X136.9 Y119.29 E0.23409
G1 X137.689 Y119.33 E0.24985
G1 X138.469 Y119.449 E0.2656
G1 X139.234 Y119.647 E0.28137
G1 X139.974 Y119.921 E0.29712
G1 X140.683 Y120.269 E0.31288
G1 X141.354 Y120.687 E0.32865
G1 X141.978 Y121.17 E0.3444
G1 X142.551 Y121.713 E0.36015
G1 X143.066 Y122.312 E0.37592
G1 X143.517 Y122.96 E0.39167
G1 X143.901 Y123.651 E0.40745
G1 X144.213 Y124.376 E0.4232
G1 X144.45 Y125.129 E0.43895
G1 X144.609 Y125.903 E0.45472
G1 X144.69 Y126.688 E0.47047
G1 X144.7 Y127.09 E0.4785
G1 X144.7 Y129.34 E0.5234
G1 X144.66 Y130.129 E0.53916
G1 X144.642 Y130.248 E0.54156
G1 X144.681 Y130.773 E0.55207
G1 X144.7 Y133.09 E0.59831
G1 X144.67 Y133.688 E0.61026
G1 X145.139 Y133.54 E0.62007
G1 X145.913 Y133.381 E0.63584
G1 X146.698 Y133.3 E0.65159
G1 X147.1 Y133.29 E0.65962
G1 X152.9 Y133.29 E0.77536
G1 X153.689 Y133.33 E0.79113
G1 X154.469 Y133.449 E0.80687
G1 X155.234 Y133.647 E0.82264
G1 X155.33 Y133.682 E0.82468
G1 X155.31 Y133.492 E0.82849
G1 X155.3 Y133.09 E0.83652
G1 X155.3 Y130.84 E0.88142
G1 X155.34 Y130.051 E0.89719
G1 X155.358 Y129.932 E0.89959
G1 X155.319 Y129.407 E0.91009
G1 X155.3 Y127.09 E0.95633
G1 X155.34 Y126.301 E0.9721
G1 X155.459 Y125.521 E0.98784
G1 X155.657 Y124.756 E1.00361
G1 X155.931 Y124.016 E1.01936
G1 X156.279 Y123.307 E1.03512
G1 X156.697 Y122.636 E1.0509
G1 X157.18 Y122.012 E1.06665
G1 X157.723 Y121.439 E1.0824
G1 X158.322 Y120.924 E1.09816
G1 X158.97 Y120.473 E1.11392
G1 X159.661 Y120.089 E1.12969
G1 X160.386 Y119.777 E1.14545
G1 X161.139 Y119.54 E1.1612
G1 X161.913 Y119.381 E1.17697
G1 X162.698 Y119.3 E1.19272
G1 X163.1 Y119.29 E1.20074
G1 X168.9 Y119.29 E1.31649
G1 X169.689 Y119.33 E1.33225
G1 X170.469 Y119.449 E1.348
G1 X171.234 Y119.647 E1.36377
G1 X171.974 Y119.921 E1.37951
G1 X172.683 Y120.269 E1.39528
G1 X173.354 Y120.687 E1.41105
G1 X173.978 Y121.17 E1.4268
G1 X174.551 Y121.713 E1.44255
G1 X175.066 Y122.312 E1.45832
G1 X175.517 Y122.96 E1.47407
G1 X175.901 Y123.651 E1.48985
G1 X176.213 Y124.376 E1.5056
G1 X176.45 Y125.129 E1.52135
G1 X176.609 Y125.903 E1.53712
G1 X176.69 Y126.688 E1.55287
G1 X176.7 Y127.09 E1.5609
G1 X176.7 Y129.34 E1.6058
G1 X176.66 Y130.129 E1.62156
G1 X176.642 Y130.248 E1.62396
G1 X176.681 Y130.773 E1.63447
G1 X176.7 Y133.09 E1.68071
G1 X176.66 Y133.879 E1.69648
G1 X176.541 Y134.659 E1.71222
G1 X176.343 Y135.424 E1.72799
G1 X176.069 Y136.164 E1.74374
G1 X175.721 Y136.873 E1.7595
G1 X175.303 Y137.544 E1.77528
G1 X174.82 Y138.168 E1.79102
G1 X174.277 Y138.741 E1.80678
G1 X173.678 Y139.256 E1.82254
G1 X173.03 Y139.707 E1.8383
G1 X172.339 Y140.091 E1.85407
G1 X171.614 Y140.403 E1.86982
G1 X170.861 Y140.64 E1.88558
G1 X170.087 Y140.799 E1.90134
G1 X169.302 Y140.88 E1.91709
G1 X168.9 Y140.89 E1.92512
G1 X163.1 Y140.89 E2.04086
G1 X162.311 Y140.85 E2.05663
G1 X161.531 Y140.731 E2.07238
G1 X160.766 Y140.533 E2.08814
G1 X160.67 Y140.498 E2.09018
G1 X160.69 Y140.688 E2.094
G1 X160.7 Y141.09 E2.10202
G1 X160.7 Y143.34 E2.14692
G1 X160.66 Y144.129 E2.16269
G1 X160.642 Y144.248 E2.16509
G1 X160.681 Y144.773 E2.1756
G1 X160.7 Y147.09 E2.22184
G1 X160.66 Y147.879 E2.2376
G1 X160.541 Y148.659 E2.25335
G1 X160.343 Y149.424 E2.26912
G1 X160.069 Y150.164 E2.28486
G1 X159.721 Y150.873 E2.30062
G1 X159.303 Y151.544 E2.3164
G1 X158.82 Y152.168 E2.33215
G1 X158.277 Y152.741 E2.3479
G1 X157.678 Y153.256 E2.36367
G1 X157.03 Y153.707 E2.37942
G1 X156.339 Y154.091 E2.3952
G1 X155.614 Y154.403 E2.41095
G1 X154.861 Y154.64 E2.4267
G1 X154.087 Y154.799 E2.44247
G1 X153.302 Y154.88 E2.45822
G1 X152.9 Y154.89 E2.46624
G1 X147.1 Y154.89 E2.58199
G1 X146.311 Y154.85 E2.59775
G1 X145.531 Y154.731 E2.6135
G1 X144.766 Y154.533 E2.62927
G1 X144.026 Y154.259 E2.64502
G1 X143.317 Y153.911 E2.66078
G1 X142.646 Y153.493 E2.67656
G1 X142.022 Y153.01 E2.6923
G1 X141.449 Y152.467 E2.70806
G1 X140.934 Y151.868 E2.72382
G1 X140.483 Y151.22 E2.73958
G1 X140.099 Y150.529 E2.75535
G1 X139.787 Y149.804 E2.7711
G1 X139.55 Y149.051 E2.78686
G1 X139.391 Y148.277 E2.80262
G1 X139.31 Y147.492 E2.81837
G1 X139.3 Y147.09 E2.8264
G1 X139.3 Y144.84 E2.8713
G1 X139.34 Y144.051 E2.88706
G1 X139.358 Y143.932 E2.88947
G1 X139.319 Y143.407 E2.89997
G1 X139.3 Y141.09 E2.94621
G1 X139.33 Y140.492 E2.95816
G1 X138.861 Y140.64 E2.96798
G1 X138.087 Y140.799 E2.98374
G1 X137.302 Y140.88 E2.99949
G1 X136.9 Y140.89 E3.00752
G1 X131.1 Y140.89 E3.12326
G1 X130.311 Y140.85 E3.13903
G1 X129.531 Y140.731 E3.15477
G1 X128.766 Y140.533 E3.17054
G1 X128.026 Y140.259 E3.18629
G1 X127.317 Y139.911 E3.20205
G1 X126.646 Y139.493 E3.21783
G1 X126.022 Y139.01 E3.23358
G1 X125.449 Y138.467 E3.24933
G1 X124.934 Y137.868 E3.26509
G1 X124.483 Y137.22 E3.28085
G1 X124.099 Y136.529 E3.29662
G1 X123.787 Y135.804 E3.31238
G1 X123.55 Y135.051 E3.32813
G1 X123.391 Y134.277 E3.3439
G1 X123.31 Y133.492 E3.35965
G1 X123.3 Y133.09 E3.36767
G1 X123.3 Y130.84 E3.41257
G1 X123.34 Y130.051 E3.42834
G1 X123.358 Y129.932 E3.43074
G1 X123.319 Y129.407 E3.44125
G1 X123.3 Y127.09 E3.48749
G1 X123.34 Y126.301 E3.50325
G1 X123.459 Y125.521 E3.519
G1 X123.657 Y124.756 E3.53477
G1 X123.931 Y124.016 E3.55051
G1 X124.279 Y123.307 E3.56628
G1 X124.697 Y122.636 E3.58205
G1 X125.18 Y122.012 E3.5978
G1 X125.723 Y121.439 E3.61355
G0 F6000 X126.116 Y121.62
G1 F900 X126.711 Y121.132 E3.62891
G1 X127.353 Y120.709 E3.64425
G1 X128.036 Y120.354 E3.65961
G1 X128.751 Y120.073 E3.67494
G1 X129.493 Y119.867 E3.69031
G1 X130.251 Y119.739 E3.70565
G1 X131.1 Y119.69 E3.72262
G1 X136.9 Y119.69 E3.83837
G1 X137.668 Y119.73 E3.85372
G1 X138.428 Y119.849 E3.86907
G1 X139.171 Y120.047 E3.88441
G1 X139.89 Y120.321 E3.89977
G1 X140.576 Y120.668 E3.91511
G1 X141.223 Y121.084 E3.93046
G1 X141.823 Y121.565 E3.9458
G1 X142.37 Y122.106 E3.96116
G1 X142.858 Y122.701 E3.97651
G1 X143.281 Y123.343 E3.99186
G1 X143.636 Y124.026 E4.00722
G1 X143.917 Y124.741 E4.02255
G1 X144.123 Y125.483 E4.03792
G1 X144.251 Y126.241 E4.05326
G1 X144.3 Y127.09 E4.07023
G1 X144.3 Y129.34 E4.11513
G1 X144.26 Y130.108 E4.13048
G1 X144.248 Y130.186 E4.13205
G1 X144.281 Y130.777 E4.14386
G1 X144.3 Y133.09 E4.19002
G1 X144.26 Y133.858 E4.20537
G1 X144.192 Y134.293 E4.21416
G1 X144.751 Y134.073 E4.22615
G1 X145.493 Y133.867 E4.24151
G1 X146.251 Y133.739 E4.25685
G1 X147.1 Y133.69 E4.27382
G1 X152.9 Y133.69 E4.38957
G1 X153.668 Y133.73 E4.40492
G1 X154.428 Y133.849 E4.42027
G1 X155.171 Y134.047 E4.43561
G1 X155.808 Y134.29 E4.44922
G1 X155.749 Y133.939 E4.45632
G1 X155.7 Y133.09 E4.47329
G1 X155.7 Y130.84 E4.51819
G1 X155.74 Y130.072 E4.53354
G1 X155.752 Y129.994 E4.53512
G1 X155.719 Y129.403 E4.54693
G1 X155.7 Y127.09 E4.59309
G1 X155.74 Y126.322 E4.60844
G1 X155.859 Y125.562 E4.62379
G1 X156.057 Y124.819 E4.63913
G1 X156.331 Y124.1 E4.65449
G1 X156.678 Y123.414 E4.66983
G1 X157.094 Y122.767 E4.68518
G1 X157.575 Y122.167 E4.70052
G1 X158.116 Y121.62 E4.71588
G1 X158.711 Y121.132 E4.73123
G1 X159.353 Y120.709 E4.74658
G1 X160.036 Y120.354 E4.76194
G1 X160.751 Y120.073 E4.77727
G1 X161.493 Y119.867 E4.79264
G1 X162.251 Y119.739 E4.80798
G1 X163.1 Y119.69 E4.82495
G1 X168.9 Y119.69 E4.94069
G1 X169.668 Y119.73 E4.95604
G1 X170.428 Y119.849 E4.97139
G1 X171.171 Y120.047 E4.98674
G1 X171.89 Y120.321 E5.00209
G1 X172.576 Y120.668 E5.01743
G1 X173.223 Y121.084 E5.03278
G1 X173.823 Y121.565 E5.04813
G1 X174.37 Y122.106 E5.06348
G1 X174.858 Y122.701 E5.07884
G1 X175.281 Y123.343 E5.09418
G1 X175.636 Y124.026 E5.10954
G1 X175.917 Y124.741 E5.12487
G1 X176.123 Y125.483 E5.14024
G1 X176.251 Y126.241 E5.15558
G1 X176.3 Y127.09 E5.17255
G1 X176.3 Y129.34 E5.21746
G1 X176.26 Y130.108 E5.2328
G1 X176.248 Y130.186 E5.23438
G1 X176.281 Y130.777 E5.24619
G1 X176.3 Y133.09 E5.29235
G1 X176.26 Y133.858 E5.3077
G1 X176.141 Y134.618 E5.32305
G1 X175.943 Y135.361 E5.33839
G1 X175.669 Y136.08 E5.35375
G1 X175.322 Y136.766 E5.36909
G1 X174.906 Y137.413 E5.38444
G1 X174.425 Y138.013 E5.39979
G1 X173.884 Y138.56 E5.41514
G1 X173.289 Y139.048 E5.4305
G1 X172.647 Y139.471 E5.44584
G1 X171.964 Y139.826 E5.4612
G1 X171.249 Y140.107 E5.47653
G1 X170.507 Y140.313 E5.4919
G1 X169.749 Y140.441 E5.50724
G1 X168.9 Y140.49 E5.52421
G1 X163.1 Y140.49 E5.63996
G1 X162.332 Y140.45 E5.6553
G1 X161.572 Y140.331 E5.67065
G1 X160.829 Y140.133 E5.686
G1 X160.192 Y139.89 E5.6996
G1 X160.251 Y140.241 E5.70671
G1 X160.3 Y141.09 E5.72368
G1 X160.3 Y143.34 E5.76858
G1 X160.26 Y144.108 E5.78393
G1 X160.248 Y144.186 E5.7855
G1 X160.281 Y144.777 E5.79731
G1 X160.3 Y147.09 E5.84347
G1 X160.26 Y147.858 E5.85882
G1 X160.141 Y148.618 E5.87417
G1 X159.943 Y149.361 E5.88952
G1 X159.669 Y150.08 E5.90487
G1 X159.322 Y150.766 E5.92021
G1 X158.906 Y151.413 E5.93556
G1 X158.425 Y152.013 E5.95091
G1 X157.884 Y152.56 E5.96626
G1 X157.289 Y153.048 E5.98162
G1 X156.647 Y153.471 E5.99696
G1 X155.964 Y153.826 E6.01232
G1 X155.249 Y154.107 E6.02765
G1 X154.507 Y154.313 E6.04302
G1 X153.749 Y154.441 E6.05836
G1 X152.9 Y154.49 E6.07533
G1 X147.1 Y154.49 E6.19108
G1 X146.332 Y154.45 E6.20643
G1 X145.572 Y154.331 E6.22178
G1 X144.829 Y154.133 E6.23712
G1 X144.11 Y153.859 E6.25248
G1 X143.424 Y153.512 E6.26782
G1 X142.777 Y153.096 E6.28317
G1 X142.177 Y152.615 E6.29851
G1 X141.63 Y152.074 E6.31387
G1 X141.142 Y151.479 E6.32922
G1 X140.719 Y150.837 E6.34457
G1 X140.364 Y150.154 E6.35993
G1 X140.083 Y149.439 E6.37526
G1 X139.877 Y148.697 E6.39063
G1 X139.749 Y147.939 E6.40597
G1 X139.7 Y147.09 E6.42294
G1 X139.7 Y144.84 E6.46784
G1 X139.74 Y144.072 E6.48319
G1 X139.752 Y143.994 E6.48476
G1 X139.719 Y143.403 E6.49657
G1 X139.7 Y141.09 E6.54273
G1 X139.74 Y140.322 E6.55808
G1 X139.808 Y139.887 E6.56687
G1 X139.249 Y140.107 E6.57886
G1 X138.507 Y140.313 E6.59422
G1 X137.749 Y140.441 E6.60956
G1 X136.9 Y140.49 E6.62654
G1 X131.1 Y140.49 E6.74228
G1 X130.332 Y140.45 E6.75763
G1 X129.572 Y140.331 E6.77298
G1 X128.829 Y140.133 E6.78832
G1 X128.11 Y139.859 E6.80368
G1 X127.424 Y139.512 E6.81902
G1 X126.777 Y139.096 E6.83437
G1 X126.177 Y138.615 E6.84972
G1 X125.63 Y138.074 E6.86507
G1 X125.142 Y137.479 E6.88043
G1 X124.719 Y136.837 E6.89577
G1 X124.364 Y136.154 E6.91113
G1 X124.083 Y135.439 E6.92646
G1 X123.877 Y134.697 E6.94183
G1 X123.749 Y133.939 E6.95717
G1 X123.7 Y133.09 E6.97414
G1 X123.7 Y130.84 E7.01904
G1 X123.74 Y130.072 E7.03439
G1 X123.752 Y129.994 E7.03596
G1 X123.719 Y129.403 E7.04778
G1 X123.7 Y127.09 E7.09394
G1 X123.74 Y126.322 E7.10928
G1 X123.859 Y125.562 E7.12463
G1 X124.057 Y124.819 E7.13998
G1 X124.331 Y124.1 E7.15533
G1 X124.678 Y123.414 E7.17068
G1 X125.094 Y122.767 E7.18603
G1 X125.575 Y122.167 E7.20137
G1 X126.116 Y121.62 E7.21673
G0 F6000 X126.508 Y121.806
G1 F900 X127.098 Y121.347 E7.23164
G1 X127.734 Y120.952 E7.24658
G1 X128.408 Y120.628 E7.26151
G1 X129.113 Y120.378 E7.27644
G1 X129.841 Y120.204 E7.29137
G1 X130.583 Y120.109 E7.3063
G1 X131.1 Y120.09 E7.31662
G1 X136.9 Y120.09 E7.43237
G1 X137.647 Y120.13 E7.4473
G1 X138.385 Y120.249 E7.46222
G1 X139.107 Y120.447 E7.47716
G1 X139.803 Y120.72 E7.49208
G1 X140.466 Y121.067 E7.50701
G1 X141.089 Y121.482 E7.52195
G1 X141.663 Y121.961 E7.53687
G1 X142.184 Y122.498 E7.5518
G1 X142.643 Y123.088 E7.56672
G1 X143.038 Y123.724 E7.58166
G1 X143.362 Y124.398 E7.59658
G1 X143.612 Y125.103 E7.61151
G1 X143.786 Y125.831 E7.62645
G1 X143.881 Y126.573 E7.64137
G1 X143.9 Y127.09 E7.6517
G1 X143.9 Y129.34 E7.6966
G1 X143.86 Y130.087 E7.71153
G1 X143.834 Y130.25 E7.71482
G1 X143.881 Y130.78 E7.72544
G1 X143.9 Y133.09 E7.77154
G1 X143.86 Y133.837 E7.78647
G1 X143.741 Y134.575 E7.80139
G1 X143.618 Y135.024 E7.81068
G1 X143.734 Y134.952 E7.8134
G1 X144.408 Y134.628 E7.82833
G1 X145.113 Y134.378 E7.84325
G1 X145.841 Y134.204 E7.85819
G1 X146.583 Y134.109 E7.87312
G1 X147.1 Y134.09 E7.88344
G1 X152.9 Y134.09 E7.99919
G1 X153.647 Y134.13 E8.01412
G1 X154.385 Y134.249 E8.02903
G1 X155.107 Y134.447 E8.04397
G1 X155.803 Y134.72 E8.05889
G1 X156.374 Y135.019 E8.07176
G1 X156.214 Y134.349 E8.0855
G1 X156.119 Y133.607 E8.10043
G1 X156.1 Y133.09 E8.11076
G1 X156.1 Y130.84 E8.15566
G1 X156.14 Y130.093 E8.17059
G1 X156.166 Y129.93 E8.17388
G1 X156.119 Y129.4 E8.1845
G1 X156.1 Y127.09 E8.2306
G1 X156.14 Y126.343 E8.24553
G1 X156.259 Y125.605 E8.26044
G1 X156.457 Y124.883 E8.27538
G1 X156.73 Y124.187 E8.2903
G1 X157.077 Y123.524 E8.30524
G1 X157.492 Y122.901 E8.32018
G1 X157.971 Y122.327 E8.3351
G1 X158.508 Y121.806 E8.35003
G1 X159.098 Y121.347 E8.36494
G1 X159.734 Y120.952 E8.37988
G1 X160.408 Y120.628 E8.39481
G1 X161.113 Y120.378 E8.40974
G1 X161.841 Y120.204 E8.42467
G1 X162.583 Y120.109 E8.4396
G1 X163.1 Y120.09 E8.44993
G1 X168.9 Y120.09 E8.56567
G1 X169.647 Y120.13 E8.5806
G1 X170.385 Y120.249 E8.59552
G1 X171.107 Y120.447 E8.61046
G1 X171.803 Y120.72 E8.62538
G1 X172.466 Y121.067 E8.64031
G1 X173.089 Y121.482 E8.65525
G1 X173.663 Y121.961 E8.67017
G1 X174.184 Y122.498 E8.6851
G1 X174.643 Y123.088 E8.70002
G1 X175.038 Y123.724 E8.71496
G1 X175.362 Y124.398 E8.72988
G1 X175.612 Y125.103 E8.74481
G1 X175.786 Y125.831 E8.75975
G1 X175.881 Y126.573 E8.77467
G1 X175.9 Y127.09 E8.785
G1 X175.9 Y129.34 E8.8299
G1 X175.86 Y130.087 E8.84483
G1 X175.834 Y130.25 E8.84812
G1 X175.881 Y130.78 E8.85874
G1 X175.9 Y133.09 E8.90484
G1 X175.86 Y133.837 E8.91977
G1 X175.741 Y134.575 E8.93469
G1 X175.543 Y135.297 E8.94963
G1 X175.27 Y135.993 E8.96455
G1 X174.923 Y136.656 E8.97948
G1 X174.508 Y137.279 E8.99442
G1 X174.029 Y137.853 E9.00934
G1 X173.492 Y138.374 E9.02427
G1 X172.902 Y138.833 E9.03919
G1 X172.266 Y139.228 E9.05413
G1 X171.592 Y139.552 E9.06905
G1 X170.887 Y139.802 E9.08398
G1 X170.159 Y139.976 E9.09892
G1 X169.417 Y140.071 E9.11385
G1 X168.9 Y140.09 E9.12417
G1 X163.1 Y140.09 E9.23991
G1 X162.353 Y140.05 E9.25484
G1 X161.615 Y139.931 E9.26976
G1 X160.893 Y139.733 E9.2847
G1 X160.197 Y139.46 E9.29962
G1 X159.626 Y139.161 E9.31248
G1 X159.786 Y139.831 E9.32623
G1 X159.881 Y140.573 E9.34116
G1 X159.9 Y141.09 E9.35148
G1 X159.9 Y143.34 E9.39638
G1 X159.86 Y144.087 E9.41131
G1 X159.834 Y144.25 E9.41461
G1 X159.881 Y144.78 E9.42522
G1 X159.9 Y147.09 E9.47132
G1 X159.86 Y147.837 E9.48625
G1 X159.741 Y148.575 E9.50117
G1 X159.543 Y149.297 E9.51611
G1 X159.27 Y149.993 E9.53103
G1 X158.923 Y150.656 E9.54596
G1 X158.508 Y151.279 E9.5609
G1 X158.029 Y151.853 E9.57582
G1 X157.492 Y152.374 E9.59075
G1 X156.902 Y152.833 E9.60567
G1 X156.266 Y153.228 E9.62061
G1 X155.592 Y153.552 E9.63554
G1 X154.887 Y153.802 E9.65046
G1 X154.159 Y153.976 E9.6654
G1 X153.417 Y154.071 E9.68033
G1 X152.9 Y154.09 E9.69065
G1 X147.1 Y154.09 E9.8064
G1 X146.353 Y154.05 E9.82133
G1 X145.615 Y153.931 E9.83624
G1 X144.893 Y153.733 E9.85118
G1 X144.197 Y153.46 E9.8661
G1 X143.534 Y153.113 E9.88104
G1 X142.911 Y152.698 E9.89598
G1 X142.337 Y152.219 E9.9109
G1 X141.816 Y151.682 E9.92583
G1 X141.357 Y151.092 E9.94074
G1 X140.962 Y150.456 E9.95568
G1 X140.638 Y149.782 E9.97061
G1 X140.388 Y149.077 E9.98554
