;FLAVOR:Marlin
;TIME:312
;Filament used: 0.0918537m
;Layer height: 0.12
;MINX:142.281
;MINY:136.587
;MINZ:0.144
;MAXX:157.859
;MAXY:152.396
;MAXZ:11.744
;Generated with Cura_SteamEngine 4.5.0
M140 S80
M105
M190 S80
M104 S200
M105
M109 S200
M82 ;absolute extrusion mode
M201 X500.00 Y500.00 Z100.00 E5000.00 ;Setup machine max acceleration
M203 X500.00 Y500.00 Z10.00 E50.00 ;Setup machine max feedrate
M204 P500.00 R1000.00 T500.00 ;Setup Print/Retract/Travel acceleration
M205 X8.00 Y8.00 Z0.40 E5.00 ;Setup Jerk
M220 S100 ;Reset Feedrate
M221 S100 ;Reset Flowrate

G28 ;Home
M420 S1 Z2 ;Enable ABL using saved Mesh and Fade Height

G92 E0 ;Reset Extruder
G1 Z2.0 F3000 ;Move Z Axis up
G1 X10.1 Y20 Z0.28 F5000.0 ;Move to start position
G1 X10.1 Y200.0 Z0.28 F1500.0 E15 ;Draw the first line
G1 X10.4 Y200.0 Z0.28 F5000.0 ;Move to side a little
G1 X10.4 Y20 Z0.28 F1500.0 E30 ;Draw the second line
G92 E0 ;Reset Extruder
G1 Z2.0 F3000 ;Move Z Axis up

G92 E0
G92 E0
G1 F2700 E-5
;LAYER_COUNT:91
;LAYER:-6
M106 S255
G0 F9000 X145.035 Y139.784 Z0.144
;TYPE:SUPPORT-INTERFACE
G1 F2700 E0
G1 F976.1 X145.344 Y139.476 E0.0209
G1 X145.621 Y139.233 E0.03854
G1 X145.914 Y139.004 E0.05635
G1 X146.301 Y138.736 E0.0789
G1 X146.375 Y138.691 E0.08305
G1 X146.795 Y138.448 E0.10629
G1 X146.956 Y138.366 E0.11494
G1 X147.413 Y138.159 E0.13897
G1 X147.719 Y138.043 E0.15464
G1 X148.009 Y137.947 E0.16927
G1 X148.352 Y137.851 E0.18633
G1 X148.696 Y137.776 E0.2032
G1 X149.056 Y137.718 E0.22066
G1 X149.364 Y137.681 E0.23552
G1 X149.857 Y137.654 E0.25917
G1 X150.254 Y137.655 E0.27818
G1 X150.347 Y137.661 E0.28264
G1 X150.804 Y137.699 E0.30461
G1 X151.01 Y137.727 E0.31456
G1 X151.387 Y137.791 E0.33288
G1 X151.786 Y137.887 E0.35253
G1 X152.107 Y137.983 E0.36858
G1 X152.277 Y138.041 E0.37718
G1 X152.708 Y138.208 E0.39932
G1 X153.063 Y138.374 E0.41809
G1 X153.275 Y138.488 E0.42962
G1 X153.678 Y138.725 E0.45201
G1 X153.835 Y138.827 E0.46098
G1 X154.19 Y139.082 E0.48191
G1 X154.471 Y139.31 E0.49924
G1 X154.758 Y139.574 E0.51792
G1 X154.994 Y139.814 E0.53404
G1 X155.137 Y139.972 E0.54425
G1 X155.433 Y140.331 E0.56653
G1 X155.618 Y140.582 E0.58147
G1 X155.927 Y141.07 E0.60913
G1 X156.144 Y141.474 E0.6311
G1 X156.311 Y141.842 E0.65045
G1 X156.371 Y141.988 E0.65801
G1 X156.53 Y142.436 E0.68078
G1 X156.629 Y142.774 E0.69765
G1 X156.712 Y143.143 E0.71576
G1 X156.762 Y143.407 E0.72863
G1 X156.818 Y143.865 E0.75073
G1 X156.837 Y144.124 E0.76317
G1 X156.845 Y144.332 E0.77314
G1 X156.844 Y144.748 E0.79306
G1 X156.815 Y145.191 E0.81432
G1 X156.776 Y145.506 E0.82953
G1 X156.722 Y145.819 E0.84474
G1 X156.638 Y146.19 E0.86296
G1 X156.441 Y146.83 E0.89503
G1 X156.296 Y147.195 E0.91384
G1 X156.176 Y147.461 E0.92782
G1 X155.996 Y147.809 E0.94658
G1 X155.921 Y147.942 E0.95389
G1 X155.66 Y148.357 E0.97737
G1 X155.509 Y148.57 E0.98988
G1 X155.149 Y149.015 E1.01729
G1 X155.071 Y149.1 E1.02282
G1 X154.648 Y149.528 E1.05164
G1 X154.552 Y149.613 E1.05778
G1 X154.232 Y149.883 E1.07783
G1 X154.074 Y150.004 E1.08737
G1 X153.726 Y150.248 E1.10772
G1 X153.406 Y150.443 E1.12567
G1 X153.079 Y150.618 E1.14343
G1 X152.804 Y150.75 E1.15804
G1 X152.436 Y150.901 E1.17709
G1 X152.124 Y151.011 E1.19294
G1 X151.838 Y151.097 E1.20724
G1 X151.466 Y151.189 E1.2256
G1 X151.003 Y151.274 E1.24814
G1 X150.858 Y151.291 E1.25513
G1 X150.293 Y151.341 E1.2823
G1 X149.83 Y151.347 E1.30448
G1 X149.415 Y151.325 E1.32438
G1 X148.828 Y151.247 E1.35274
G1 X148.391 Y151.158 E1.3741
G1 X148.045 Y151.064 E1.39127
G1 X147.753 Y150.97 E1.40597
G1 X147.461 Y150.862 E1.42088
G1 X147.081 Y150.696 E1.44074
G1 X146.769 Y150.539 E1.45747
G1 X146.488 Y150.38 E1.47293
G1 X146.179 Y150.183 E1.49048
G1 X145.744 Y149.864 E1.51632
G1 X145.29 Y149.471 E1.54508
G1 X145.204 Y149.385 E1.5509
G1 X144.853 Y149.017 E1.57526
G1 X144.741 Y148.885 E1.58355
G1 X144.492 Y148.571 E1.60274
G1 X144.325 Y148.338 E1.61647
G1 X144.081 Y147.946 E1.63859
G1 X143.902 Y147.619 E1.65644
G1 X143.63 Y147.016 E1.68812
G1 X143.512 Y146.691 E1.70468
G1 X143.419 Y146.397 E1.71945
G1 X143.336 Y146.086 E1.73487
G1 X143.254 Y145.68 E1.75471
G1 X143.207 Y145.374 E1.76954
G1 X143.171 Y145.021 E1.78653
G1 X143.153 Y144.471 E1.81289
G1 X143.167 Y144.027 E1.83416
G1 X143.196 Y143.702 E1.84979
G1 X143.251 Y143.321 E1.86823
G1 X143.317 Y142.997 E1.88406
G1 X143.409 Y142.635 E1.90195
G1 X143.51 Y142.313 E1.91811
G1 X143.634 Y141.975 E1.93536
G1 X143.724 Y141.759 E1.94657
G1 X143.926 Y141.337 E1.96897
G1 X144.199 Y140.863 E1.99517
G1 X144.399 Y140.558 E2.01264
G1 X144.666 Y140.205 E2.03384
G1 X144.884 Y139.947 E2.05002
G1 X145.035 Y139.784 E2.06066
G0 F9000 X145.6 Y139.251
G1 F976.1 X145.6 Y149.739 E2.56298
G0 F9000 X147.2 Y150.747
G1 F976.1 X147.2 Y138.255 E3.16128
G0 F9000 X148.8 Y137.759
G1 F976.1 X148.8 Y151.241 E3.80699
G0 F9000 X150.4 Y151.332
G1 F976.1 X150.4 Y137.666 E4.46152
G0 F9000 X152 Y137.951
G1 F976.1 X152 Y151.049 E5.08884
G0 F9000 X153.6 Y150.325
G1 F976.1 X153.6 Y138.68 E5.64657
G0 F9000 X155.2 Y140.049
G1 F976.1 X155.2 Y148.952 E6.07298
G0 F9000 X156.8 Y145.313
G1 F976.1 X156.8 Y143.718 E6.14937
G1 F2700 E1.14937
G0 F9000 X157.859 Y143.571
G0 X157.535 Y142.083
G0 X157.009 Y140.827
G0 X156.148 Y139.518
G0 X155.022 Y138.383
G0 X153.804 Y137.565
G0 X153.169 Y137.241
G0 X151.813 Y136.755
G0 X150.097 Y136.587
G0 X148.853 Y136.672
G0 X148.183 Y136.757
G0 X146.826 Y137.258
G0 X145.594 Y137.927
G0 X144.488 Y138.822
G0 X143.655 Y139.814
G0 X143.14 Y140.56
G0 X144 Y141.208
G1 F2700 E6.14937
G1 F976.1 X144 Y147.798 E6.465
G0 F300 X144 Y147.798 Z0.324
G0 F9000 X143.418 Y146.395
;TIME_ELAPSED:14.870385
;LAYER:-5
M140 S60
;TYPE:SUPPORT
G1 F1041.6 X143.512 Y146.69 E6.48353
G1 X143.629 Y147.015 E6.50421
G1 X143.901 Y147.618 E6.54382
G1 X144.081 Y147.945 E6.56616
G1 X144.324 Y148.336 E6.59372
G1 X144.491 Y148.57 E6.61093
G1 X144.74 Y148.884 E6.63493
G1 X144.852 Y149.016 E6.64529
G1 X145.203 Y149.384 E6.67574
G1 X145.289 Y149.47 E6.68302
G1 X145.743 Y149.863 E6.71897
G1 X146.178 Y150.182 E6.75126
G1 X146.487 Y150.379 E6.7732
G1 X146.769 Y150.538 E6.79258
G1 X147.081 Y150.695 E6.81349
G1 X147.461 Y150.861 E6.83832
G1 X147.753 Y150.969 E6.85696
G1 X148.045 Y151.063 E6.87532
G1 X148.305 Y151.134 E6.89146
G1 X143.364 Y146.192 E7.30984
G1 X143.336 Y146.085 E7.31646
G1 X143.254 Y145.679 E7.34126
G1 X143.206 Y145.373 E7.3598
G1 X143.17 Y145.02 E7.38104
G1 X143.155 Y144.57 E7.408
G1 X149.93 Y151.344 E7.98157
G1 X150.292 Y151.34 E8.00325
G1 X150.857 Y151.29 E8.0372
G1 X151.003 Y151.273 E8.046
G1 X151.231 Y151.231 E8.05988
G1 X143.262 Y143.262 E8.73459
G1 X143.316 Y142.996 E8.75084
G1 X143.408 Y142.634 E8.7732
G1 X143.509 Y142.313 E8.79335
G1 X143.567 Y142.153 E8.80354
G1 X152.346 Y150.931 E9.54678
G1 X152.435 Y150.9 E9.55242
G1 X152.803 Y150.75 E9.57621
G1 X153.078 Y150.617 E9.5945
G1 X153.317 Y150.489 E9.61073
G1 X144.012 Y141.184 E10.39856
G1 X144.198 Y140.863 E10.42077
G1 X144.398 Y140.558 E10.4426
G1 X144.571 Y140.328 E10.45983
G1 X154.171 Y149.928 E11.27263
G1 X154.231 Y149.882 E11.27716
G1 X154.551 Y149.613 E11.30218
G1 X154.647 Y149.527 E11.3099
G1 X154.915 Y149.258 E11.33263
G1 X145.238 Y139.581 E12.15195
G1 X145.343 Y139.476 E12.16084
G1 X145.62 Y139.233 E12.1829
G1 X145.913 Y139.003 E12.2052
G1 X146.009 Y138.937 E12.21218
G1 X155.563 Y148.492 E13.02112
G1 X155.659 Y148.356 E13.03109
G1 X155.92 Y147.941 E13.06044
G1 X155.995 Y147.808 E13.06958
G1 X156.097 Y147.612 E13.08281
G1 X146.886 Y138.401 E13.86267
G1 X146.955 Y138.365 E13.86733
G1 X147.411 Y138.158 E13.89731
G1 X147.718 Y138.043 E13.91694
G1 X147.887 Y137.987 E13.9276
G1 X156.508 Y146.608 E14.65751
G1 X156.636 Y146.19 E14.68368
G1 X156.721 Y145.818 E14.70652
G1 X156.775 Y145.505 E14.72554
G1 X156.78 Y145.466 E14.72789
G1 X149.034 Y137.721 E15.38368
G1 X149.055 Y137.717 E15.38496
G1 X149.363 Y137.68 E15.40353
G1 X149.855 Y137.653 E15.43303
G1 X150.253 Y137.655 E15.45686
G1 X150.346 Y137.66 E15.46243
G1 X150.393 Y137.665 E15.46526
G1 X156.835 Y144.107 E16.01068
G1 X156.817 Y143.864 E16.02527
G1 X156.761 Y143.406 E16.0529
G1 X156.711 Y143.143 E16.06892
G1 X156.627 Y142.774 E16.09158
G1 X156.528 Y142.436 E16.11266
G1 X156.501 Y142.359 E16.11755
G1 X152.134 Y137.992 E16.48729
G1 X152.276 Y138.04 E16.49626
G1 X152.707 Y138.207 E16.52393
G1 X153.062 Y138.374 E16.54742
G1 X153.273 Y138.488 E16.56178
G1 X153.677 Y138.725 E16.58982
G1 X153.834 Y138.826 E16.601
G1 X154.188 Y139.082 E16.62715
G1 X154.47 Y139.309 E16.64883
G1 X154.757 Y139.574 E16.67221
G1 X154.992 Y139.814 E16.69232
G1 X155.136 Y139.971 E16.70508
G1 X155.431 Y140.33 E16.73289
G1 X155.617 Y140.582 E16.75164
G1 X155.926 Y141.069 E16.78617
G1 X156.143 Y141.473 E16.81363
G1 X156.31 Y141.842 E16.83788
G1 X156.37 Y141.987 E16.84727
G0 F300 X156.37 Y141.987 Z0.474
G0 F9000 X155.727 Y140.389
;TIME_ELAPSED:25.321228
;LAYER:-4
M107
;TYPE:SUPPORT-INTERFACE
G1 F1650 X155.592 Y140.209 E16.85289
G1 X155.42 Y140 E16.85964
G1 X144.578 Y140 E17.13009
G1 X144.726 Y139.824 E17.13583
G1 X144.861 Y139.676 E17.14083
G1 X144.938 Y139.6 E17.14352
G1 X155.067 Y139.6 E17.39619
G1 X154.903 Y139.436 E17.40198
G1 X154.647 Y139.2 E17.41066
G1 X145.355 Y139.2 E17.64245
G1 X145.469 Y139.099 E17.64625
G1 X145.716 Y138.9 E17.65417
G1 X145.858 Y138.8 E17.6585
G1 X154.142 Y138.8 E17.86514
G1 X153.95 Y138.664 E17.87101
G1 X153.787 Y138.557 E17.87588
G1 X153.52 Y138.4 E17.8836
G1 X146.48 Y138.4 E18.05922
G1 X146.704 Y138.27 E18.06568
G1 X146.834 Y138.203 E18.06933
G1 X147.282 Y138 E18.08159
G1 X152.721 Y138 E18.21727
G1 X152.129 Y137.78 E18.23302
G1 X151.838 Y137.694 E18.24059
G1 X151.448 Y137.6 E18.2506
G1 X148.565 Y137.6 E18.32252
G1 X148.659 Y137.579 E18.32492
G1 X148.997 Y137.524 E18.33346
G1 X149.305 Y137.486 E18.3412
G1 X149.853 Y137.454 E18.3549
G1 X150.25 Y137.455 E18.3648
G1 X150.367 Y137.462 E18.36772
G1 X150.951 Y137.515 E18.38235
G1 X151.431 Y137.596 E18.3945
G1 F2700 E13.3945
G0 F9000 X151.811 Y136.811
G0 X151.813 Y136.755
G0 X153.17 Y137.256
G0 X154.441 Y137.953
G0 X155.404 Y138.735
G0 X156.282 Y139.689
G0 X155.727 Y140.389
G1 F2700 E18.3945
G1 F1650 X155.735 Y140.4 E18.39483
G1 X144.267 Y140.4 E18.68091
G1 X144.237 Y140.44 E18.68215
G1 X144.031 Y140.755 E18.69154
G1 X144.006 Y140.8 E18.69283
G1 X155.997 Y140.8 E18.99194
G1 X156.102 Y140.974 E18.99701
G1 X156.224 Y141.2 E19.00342
G1 X143.775 Y141.2 E19.31396
G1 X143.751 Y141.24 E19.31512
G1 X143.579 Y141.6 E19.32508
G1 X156.421 Y141.6 E19.64542
G1 X156.496 Y141.766 E19.64996
G1 X156.547 Y141.891 E19.65333
G1 X156.587 Y142 E19.65623
G1 X143.412 Y142 E19.98488
G1 X143.321 Y142.245 E19.9914
G1 X143.273 Y142.4 E19.99545
G1 X156.728 Y142.4 E20.33108
G1 X156.813 Y142.691 E20.33865
G1 X156.839 Y142.8 E20.34144
G1 X143.161 Y142.8 E20.68264
G1 X143.122 Y142.95 E20.68651
G1 X143.072 Y143.2 E20.69287
G1 X156.927 Y143.2 E21.03848
G1 X156.96 Y143.379 E21.04302
G1 X156.988 Y143.6 E21.04858
G1 X143.009 Y143.6 E21.39729
G1 X142.996 Y143.686 E21.39946
G1 X142.97 Y144 E21.40732
G1 X157.029 Y144 E21.75802
G1 X157.036 Y144.116 E21.76092
G1 X157.045 Y144.329 E21.76624
G1 X157.044 Y144.4 E21.76801
G1 X142.956 Y144.4 E22.11943
G1 X142.953 Y144.466 E22.12108
G1 X142.963 Y144.8 E22.12942
G1 X157.041 Y144.8 E22.48059
G1 X157.014 Y145.2 E22.49059
G1 X142.987 Y145.2 E22.8405
G1 X143.013 Y145.439 E22.8465
G1 X143.039 Y145.6 E22.85056
G1 X156.963 Y145.6 E23.1979
G1 X156.926 Y145.815 E23.20334
G1 X156.884 Y146 E23.20807
G1 X143.114 Y146 E23.55157
G1 X143.14 Y146.123 E23.5547
G1 X143.212 Y146.4 E23.56184
G1 X156.782 Y146.4 E23.90035
G1 X156.66 Y146.8 E23.91078
G1 X143.338 Y146.8 E24.2431
G1 X143.444 Y147.088 E24.25076
G1 X143.49 Y147.2 E24.25378
G1 X156.51 Y147.2 E24.57856
G1 X156.356 Y147.549 E24.58808
G1 X156.33 Y147.6 E24.5895
G1 X143.672 Y147.6 E24.90526
G1 X143.724 Y147.71 E24.90829
G1 X143.882 Y148 E24.91653
G1 X156.114 Y148 E25.22166
G1 X156.023 Y148.163 E25.22632
G1 X155.87 Y148.4 E25.23335
G1 X144.131 Y148.4 E25.52619
G1 X144.188 Y148.49 E25.52884
G1 X144.334 Y148.693 E25.53508
G1 X144.418 Y148.8 E25.53847
G1 X155.578 Y148.8 E25.81686
G1 X155.296 Y149.15 E25.82807
G1 X155.25 Y149.2 E25.82977
G1 X144.751 Y149.2 E26.09167
G1 X145.057 Y149.521 E26.10273
G1 X145.138 Y149.6 E26.10555
G1 X154.858 Y149.6 E26.34802
G1 X154.781 Y149.678 E26.35075
G1 X154.681 Y149.766 E26.35407
G1 X154.403 Y150 E26.36314
G1 X145.597 Y150 E26.58281
G1 X145.656 Y150.049 E26.58472
G1 X146.067 Y150.349 E26.59741
G1 X146.147 Y150.4 E26.59978
G1 X153.859 Y150.4 E26.79216
G1 X153.508 Y150.615 E26.80242
G1 X153.166 Y150.798 E26.8121
G1 X153.161 Y150.8 E26.81223
G1 X146.841 Y150.8 E26.96989
G1 X146.993 Y150.876 E26.97413
G1 X147.389 Y151.049 E26.98491
G1 X147.721 Y151.17 E26.99372
G1 X147.814 Y151.2 E26.99616
G1 X152.187 Y151.2 E27.10524
G1 X152.179 Y151.203 E27.10546
G1 X151.886 Y151.292 E27.11309
G1 X151.512 Y151.384 E27.1227
G1 X151.029 Y151.471 E27.13494
G1 X150.874 Y151.49 E27.13884
G1 X150.395 Y151.536 E27.15084
G1 X149.869 Y151.548 E27.16397
G1 X149.504 Y151.533 E27.17308
G1 X149.393 Y151.523 E27.17586
G1 X148.786 Y151.443 E27.19113
G1 X148.351 Y151.354 E27.20221
G1 X147.984 Y151.254 E27.2117
G1 F2700 E22.2117
G0 F300 X147.984 Y151.254 Z0.624
G0 F9000 X147.872 Y152.122
G0 X149.451 Y152.396
G0 X150.971 Y152.349
G0 X152.445 Y152.026
G0 X153.741 Y151.475
G0 X154.976 Y150.649
G0 X156.026 Y149.627
G0 X156.844 Y148.471
G0 X157.663 Y146.698
G0 X157.612 Y146.664
G0 X156.83 Y146.242
;TIME_ELAPSED:43.474173
;LAYER:-3
;TYPE:SUPPORT-INTERFACE
G1 F2700 E27.2117
G1 F1650 X156.925 Y145.814 E27.22263
G1 X156.973 Y145.537 E27.22965
G1 X157.013 Y145.209 E27.23789
G1 X157.043 Y144.757 E27.24919
G1 X157.044 Y144.328 E27.25989
G1 X157.035 Y144.115 E27.26521
G1 X157.017 Y143.85 E27.27183
G1 X156.959 Y143.378 E27.2837
G1 X156.908 Y143.106 E27.2906
G1 X156.812 Y142.69 E27.30125
G1 X156.799 Y142.646 E27.3024
G1 X156.799 Y146.344 E27.39464
G1 X156.634 Y146.882 E27.40868
G1 X156.531 Y147.15 E27.41584
G1 X156.399 Y147.449 E27.42399
G1 X156.399 Y141.553 E27.57107
G1 X156.325 Y141.389 E27.57556
G1 X156.101 Y140.973 E27.58735
G1 X155.999 Y140.805 E27.59225
G1 X155.999 Y148.198 E27.77667
G1 X155.827 Y148.465 E27.78459
G1 X155.685 Y148.665 E27.79071
G1 X155.599 Y148.772 E27.79413
G1 X155.599 Y140.219 E28.00749
G1 X155.591 Y140.208 E28.00783
G1 X155.288 Y139.841 E28.0197
G1 X155.199 Y139.743 E28.023
G1 X155.199 Y149.254 E28.26025
G1 X154.799 Y149.658 E28.27444
G1 X154.799 Y139.341 E28.53179
G1 X154.608 Y139.164 E28.53829
G1 X154.399 Y138.996 E28.54498
G1 X154.399 Y150.002 E28.81953
G1 X154.357 Y150.037 E28.82089
G1 X154.189 Y150.166 E28.82617
G1 X153.999 Y150.3 E28.83197
G1 X153.999 Y138.699 E29.12136
G1 X153.949 Y138.663 E29.1229
G1 X153.786 Y138.556 E29.12776
G1 X153.599 Y138.447 E29.13316
G1 X153.599 Y150.558 E29.43527
G1 X153.507 Y150.614 E29.43796
G1 X153.199 Y150.779 E29.44667
G1 X153.199 Y138.222 E29.75991
G1 X153.124 Y138.182 E29.76203
G1 X152.799 Y138.03 E29.77098
G1 X152.799 Y150.967 E30.09369
G1 X152.526 Y151.079 E30.10106
G1 X152.399 Y151.124 E30.10442
G1 X152.399 Y137.88 E30.43479
G1 X152.128 Y137.779 E30.442
G1 X151.999 Y137.741 E30.44536
G1 X151.999 Y151.257 E30.78252
G1 X151.885 Y151.291 E30.78548
G1 X151.599 Y151.362 E30.79283
G1 X151.599 Y137.636 E31.13523
G1 X151.43 Y137.595 E31.13957
G1 X151.199 Y137.557 E31.14541
G1 X151.199 Y151.44 E31.49172
G1 X151.028 Y151.47 E31.49605
G1 X150.873 Y151.489 E31.49995
G1 X150.799 Y151.497 E31.5018
G1 X150.799 Y137.501 E31.85094
G1 X150.399 Y137.464 E31.86096
G1 X150.399 Y151.535 E32.21196
G1 X150.394 Y151.535 E32.21208
G1 X149.999 Y151.545 E32.22194
G1 X149.999 Y137.454 E32.57344
G1 X149.852 Y137.453 E32.57711
G1 X149.599 Y137.467 E32.58343
G1 X149.599 Y151.535 E32.93436
G1 X149.503 Y151.532 E32.93675
G1 X149.392 Y151.522 E32.93953
G1 X149.199 Y151.496 E32.94439
G1 X149.199 Y137.497 E33.2936
G1 X148.996 Y137.523 E33.2987
G1 X148.799 Y137.555 E33.30368
G1 X148.799 Y151.443 E33.65012
G1 X148.785 Y151.442 E33.65047
G1 X148.399 Y151.363 E33.6603
G1 X148.399 Y137.635 E34.00274
G1 X148.286 Y137.661 E34.00564
G1 X147.999 Y137.741 E34.01307
G1 X147.999 Y151.257 E34.35023
G1 X147.983 Y151.253 E34.35064
G1 X147.72 Y151.169 E34.35753
