;FLAVOR:Marlin
;TIME:529
;Filament used: 0.163409m
;Layer height: 0.12
;MINX:130.212
;MINY:133.558
;MINZ:0.12
;MAXX:169.8
;MAXY:166.357
;MAXZ:3.84
;Generated with Cura_SteamEngine 4.5.0
M140 S80
M105
M190 S80
M104 S200
M105
M109 S200
M82 ;absolute extrusion mode
M201 X500.00 Y500.00 Z100.00 E5000.00 ;Setup machine max acceleration
M203 X500.00 Y500.00 Z10.00 E50.00 ;Setup machine max feedrate
M204 P500.00 R1000.00 T500.00 ;Setup Print/Retract/Travel acceleration
M205 X8.00 Y8.00 Z0.40 E5.00 ;Setup Jerk
M220 S100 ;Reset Feedrate
M221 S100 ;Reset Flowrate

G28 ;Home
M420 S1 Z2 ;Enable ABL using saved Mesh and Fade Height

G92 E0 ;Reset Extruder
G1 Z2.0 F3000 ;Move Z Axis up
G1 X10.1 Y20 Z0.28 F5000.0 ;Move to start position
G1 X10.1 Y200.0 Z0.28 F1500.0 E15 ;Draw the first line
G1 X10.4 Y200.0 Z0.28 F5000.0 ;Move to side a little
G1 X10.4 Y20 Z0.28 F1500.0 E30 ;Draw the second line
G92 E0 ;Reset Extruder
G1 Z2.0 F3000 ;Move Z Axis up

G92 E0
G92 E0
G1 F2700 E-5
;LAYER_COUNT:41
;LAYER:0
M107
G0 F6000 X133.951 Y140.44 Z0.12
;TYPE:SKIRT
G1 F2700 E0
G1 F900 X134.333 Y140.075 E0.01054
G1 X134.652 Y139.784 E0.01916
G1 X135.07 Y139.421 E0.03021
G1 X136.919 Y137.898 E0.07801
G1 X138.156 Y136.813 E0.11085
G1 X138.844 Y136.223 E0.12894
G1 X139.582 Y135.643 E0.14767
G1 X140.366 Y135.129 E0.16638
G1 X141.191 Y134.683 E0.18509
G1 X142.051 Y134.308 E0.20381
G1 X142.939 Y134.009 E0.22251
G1 X143.85 Y133.786 E0.24123
G1 X144.777 Y133.642 E0.25995
G1 X145.642 Y133.579 E0.27726
G1 X146.096 Y133.564 E0.28632
G1 X146.458 Y133.558 E0.29355
G1 X158.251 Y133.558 E0.52889
G1 X158.949 Y133.568 E0.54282
G1 X159.885 Y133.622 E0.56153
G1 X160.813 Y133.754 E0.58024
G1 X161.727 Y133.966 E0.59896
G1 X162.619 Y134.255 E0.61767
G1 X163.484 Y134.618 E0.63639
G1 X164.314 Y135.054 E0.6551
G1 X165.105 Y135.559 E0.67383
G1 X165.849 Y136.13 E0.69255
G1 X166.542 Y136.762 E0.71126
G1 X167.179 Y137.45 E0.72997
G1 X167.754 Y138.191 E0.74869
G1 X168.265 Y138.977 E0.7674
G1 X168.707 Y139.805 E0.78613
G1 X169.076 Y140.667 E0.80484
G1 X169.371 Y141.557 E0.82355
G1 X169.589 Y142.469 E0.84227
G1 X169.729 Y143.397 E0.861
G1 X169.787 Y144.258 E0.87822
G1 X169.8 Y144.887 E0.89077
G1 X169.799 Y154.757 E1.08774
G1 X169.79 Y155.484 E1.10225
G1 X169.739 Y156.421 E1.12097
G1 X169.607 Y157.349 E1.13968
G1 X169.398 Y158.263 E1.15839
G1 X169.111 Y159.156 E1.17711
G1 X168.749 Y160.022 E1.19584
G1 X168.315 Y160.853 E1.21455
G1 X167.811 Y161.644 E1.23327
G1 X167.242 Y162.389 E1.25197
G1 X166.611 Y163.084 E1.27071
G1 X165.924 Y163.722 E1.28942
G1 X165.185 Y164.299 E1.30813
G1 X164.399 Y164.811 E1.32685
G1 X163.573 Y165.254 E1.34555
G1 X162.711 Y165.626 E1.36429
G1 X161.822 Y165.922 E1.38299
G1 X160.91 Y166.142 E1.40171
G1 X159.983 Y166.283 E1.42042
G1 X159.099 Y166.344 E1.4381
G1 X158.47 Y166.357 E1.45066
G1 X146.566 Y166.356 E1.68822
G1 X145.863 Y166.347 E1.70225
G1 X144.927 Y166.295 E1.72095
G1 X143.998 Y166.164 E1.73968
G1 X143.084 Y165.953 E1.7584
G1 X142.191 Y165.666 E1.77711
G1 X141.326 Y165.304 E1.79583
G1 X140.495 Y164.869 E1.81455
G1 X139.704 Y164.365 E1.83326
G1 X138.729 Y163.598 E1.85802
G1 X138.174 Y163.109 E1.87278
G1 X135.709 Y161.014 E1.93734
G1 X134.951 Y160.392 E1.95691
G1 X134.313 Y159.826 E1.97393
G1 X134.118 Y159.639 E1.97932
G1 X133.47 Y158.962 E1.99802
G1 X132.863 Y158.207 E2.01735
G1 X132.604 Y157.854 E2.02609
G1 X132.082 Y157.075 E2.0448
G1 X131.501 Y155.989 E2.06938
G1 X131.366 Y155.699 E2.07576
G1 X131.006 Y154.833 E2.09448
G1 X130.709 Y153.891 E2.11419
G1 X130.617 Y153.546 E2.12132
G1 X130.415 Y152.631 E2.14002
G1 X130.303 Y151.832 E2.15612
G1 X130.281 Y151.617 E2.16043
G1 X130.226 Y150.685 E2.17906
G1 X130.212 Y149.867 E2.19539
G1 X130.216 Y149.256 E2.20758
G1 X130.271 Y148.32 E2.22629
G1 X130.337 Y147.799 E2.23677
G1 X130.392 Y147.435 E2.24412
G1 X130.572 Y146.514 E2.26285
G1 X130.733 Y145.917 E2.27519
G1 X130.799 Y145.697 E2.27977
G1 X131.106 Y144.811 E2.29848
G1 X131.384 Y144.164 E2.31253
G1 X131.802 Y143.325 E2.33124
G1 X132.112 Y142.799 E2.34343
G1 X132.277 Y142.536 E2.34962
G1 X132.809 Y141.764 E2.36833
G1 X133.168 Y141.312 E2.37985
G1 X133.319 Y141.132 E2.38454
G1 X133.951 Y140.44 E2.40324
G0 F6000 X134.247 Y140.71
G1 F900 X134.602 Y140.371 E2.41304
G1 X134.921 Y140.08 E2.42165
G1 X135.325 Y139.73 E2.43232
G1 X137.172 Y138.208 E2.48008
G1 X138.417 Y137.117 E2.51312
G1 X139.105 Y136.527 E2.5312
G1 X139.829 Y135.958 E2.54958
G1 X140.6 Y135.455 E2.56795
G1 X141.411 Y135.02 E2.58632
G1 X142.258 Y134.658 E2.6047
G1 X143.132 Y134.37 E2.62306
G1 X144.028 Y134.159 E2.64143
G1 X144.939 Y134.027 E2.6598
G1 X145.655 Y133.979 E2.67412
G1 X146.109 Y133.964 E2.68319
G1 X146.458 Y133.958 E2.69015
G1 X158.245 Y133.958 E2.92538
G1 X158.943 Y133.968 E2.93931
G1 X159.862 Y134.021 E2.95768
G1 X160.773 Y134.154 E2.97605
G1 X161.669 Y134.365 E2.99442
G1 X162.543 Y134.653 E3.01278
G1 X163.39 Y135.016 E3.03117
G1 X164.201 Y135.451 E3.04954
G1 X164.971 Y135.955 E3.0679
G1 X165.695 Y136.524 E3.08628
G1 X166.367 Y137.154 E3.10466
G1 X166.982 Y137.839 E3.12303
G1 X167.535 Y138.575 E3.1414
G1 X168.022 Y139.356 E3.15977
G1 X168.439 Y140.177 E3.17815
G1 X168.784 Y141.031 E3.19653
G1 X169.053 Y141.911 E3.21489
G1 X169.245 Y142.812 E3.23328
G1 X169.358 Y143.725 E3.25164
G1 X169.387 Y144.269 E3.26251
G1 X169.4 Y144.887 E3.27484
G1 X169.399 Y154.752 E3.47171
G1 X169.39 Y155.479 E3.48622
G1 X169.339 Y156.398 E3.50459
G1 X169.208 Y157.31 E3.52297
G1 X168.998 Y158.206 E3.54134
G1 X168.712 Y159.081 E3.55971
G1 X168.351 Y159.928 E3.57808
G1 X167.917 Y160.74 E3.59646
G1 X167.415 Y161.512 E3.61483
G1 X166.847 Y162.237 E3.63321
G1 X166.219 Y162.91 E3.65158
G1 X165.535 Y163.526 E3.66995
G1 X164.8 Y164.08 E3.68832
G1 X164.02 Y164.569 E3.70669
G1 X163.2 Y164.988 E3.72507
G1 X162.347 Y165.334 E3.74344
G1 X161.467 Y165.605 E3.76181
G1 X160.567 Y165.798 E3.78018
G1 X159.653 Y165.913 E3.79856
G1 X159.088 Y165.944 E3.80986
G1 X158.47 Y165.957 E3.82219
G1 X146.571 Y165.956 E4.05965
G1 X145.868 Y165.947 E4.07368
G1 X144.949 Y165.895 E4.09205
G1 X144.038 Y165.764 E4.11042
G1 X143.141 Y165.554 E4.1288
G1 X142.267 Y165.267 E4.14716
G1 X141.42 Y164.906 E4.16553
G1 X140.608 Y164.472 E4.18391
G1 X139.837 Y163.969 E4.20228
G1 X138.993 Y163.298 E4.22379
G1 X138.415 Y162.788 E4.23918
G1 X135.971 Y160.712 E4.30317
G1 X135.205 Y160.083 E4.32295
G1 X134.59 Y159.538 E4.33935
G1 X134.395 Y159.351 E4.34474
G1 X133.759 Y158.685 E4.36312
G1 X133.186 Y157.971 E4.38139
G1 X132.927 Y157.618 E4.39012
G1 X132.415 Y156.852 E4.40851
G1 X131.863 Y155.821 E4.43185
G1 X131.728 Y155.531 E4.43823
G1 X131.376 Y154.68 E4.45661
G1 X131.096 Y153.788 E4.47527
G1 X131.004 Y153.443 E4.48239
G1 X130.806 Y152.544 E4.50076
G1 X130.701 Y151.791 E4.51594
G1 X130.679 Y151.576 E4.52025
G1 X130.626 Y150.678 E4.5382
G1 X130.612 Y149.86 E4.55453
G1 X130.616 Y149.263 E4.56644
G1 X130.671 Y148.344 E4.58481
G1 X130.733 Y147.858 E4.59459
G1 X130.788 Y147.494 E4.60194
G1 X130.965 Y146.591 E4.6203
G1 X131.116 Y146.032 E4.63186
G1 X131.182 Y145.812 E4.63644
G1 X131.654 Y144.54 E4.66352
G1 X131.749 Y144.327 E4.66817
G1 X132.16 Y143.504 E4.68653
G1 X132.451 Y143.012 E4.69794
G1 X132.616 Y142.749 E4.70413
G1 X133.139 Y141.991 E4.72251
G1 X133.474 Y141.569 E4.73326
G1 X133.625 Y141.389 E4.73795
G1 X134.247 Y140.71 E4.75633
G0 F6000 X134.542 Y140.981
G1 F900 X134.872 Y140.666 E4.76543
G1 X135.191 Y140.375 E4.77405
G1 X135.579 Y140.039 E4.78429
G1 X137.421 Y138.521 E4.83192
G1 X138.677 Y137.42 E4.86525
G1 X139.365 Y136.83 E4.88334
G1 X140.076 Y136.273 E4.90137
G1 X140.833 Y135.781 E4.91938
G1 X141.631 Y135.358 E4.93741
G1 X142.463 Y135.008 E4.95542
G1 X143.323 Y134.732 E4.97344
G1 X144.204 Y134.533 E4.99147
G1 X145.1 Y134.413 E5.00951
G1 X145.668 Y134.379 E5.02086
G1 X146.122 Y134.364 E5.02993
G1 X146.458 Y134.358 E5.03664
G1 X158.239 Y134.358 E5.27174
G1 X158.937 Y134.368 E5.28567
G1 X159.839 Y134.421 E5.3037
G1 X160.732 Y134.553 E5.32171
G1 X161.61 Y134.764 E5.33973
G1 X162.466 Y135.052 E5.35776
G1 X163.293 Y135.414 E5.37577
G1 X164.085 Y135.849 E5.39381
G1 X164.836 Y136.351 E5.41183
G1 X165.539 Y136.918 E5.42986
G1 X166.189 Y137.545 E5.44788
G1 X166.781 Y138.227 E5.4659
G1 X167.311 Y138.958 E5.48392
G1 X167.773 Y139.734 E5.50194
G1 X168.166 Y140.547 E5.51996
G1 X168.484 Y141.392 E5.53798
G1 X168.727 Y142.262 E5.55601
G1 X168.892 Y143.15 E5.57403
G1 X168.987 Y144.28 E5.59666
G1 X169 Y144.887 E5.60878
G1 X168.999 Y154.747 E5.80554
G1 X168.99 Y155.474 E5.82005
G1 X168.939 Y156.376 E5.83808
G1 X168.808 Y157.27 E5.85611
G1 X168.599 Y158.148 E5.87413
G1 X168.313 Y159.005 E5.89215
G1 X167.952 Y159.833 E5.91018
G1 X167.52 Y160.625 E5.92818
G1 X167.019 Y161.377 E5.94622
G1 X166.453 Y162.081 E5.96424
G1 X165.828 Y162.732 E5.98225
G1 X165.147 Y163.326 E6.00029
G1 X164.416 Y163.857 E6.01832
G1 X163.642 Y164.321 E6.03633
G1 X162.829 Y164.715 E6.05435
G1 X161.985 Y165.035 E6.07237
G1 X161.115 Y165.28 E6.0904
G1 X160.228 Y165.446 E6.10841
G1 X159.077 Y165.544 E6.13147
G1 X158.47 Y165.557 E6.14358
G1 X146.576 Y165.556 E6.38094
G1 X145.873 Y165.547 E6.39497
G1 X144.972 Y165.496 E6.41298
G1 X144.078 Y165.365 E6.43101
G1 X143.2 Y165.155 E6.44903
G1 X142.343 Y164.868 E6.46706
G1 X141.516 Y164.507 E6.48507
G1 X140.723 Y164.074 E6.5031
G1 X139.972 Y163.573 E6.52112
G1 X139.258 Y162.998 E6.53941
G1 X138.683 Y162.491 E6.55471
G1 X136.234 Y160.409 E6.61885
G1 X135.459 Y159.774 E6.63885
G1 X134.867 Y159.249 E6.65464
G1 X134.672 Y159.062 E6.66003
G1 X134.049 Y158.409 E6.67804
G1 X133.508 Y157.734 E6.69531
G1 X133.249 Y157.381 E6.70404
G1 X132.748 Y156.63 E6.72206
G1 X132.226 Y155.652 E6.74418
G1 X132.091 Y155.362 E6.75056
G1 X131.746 Y154.527 E6.76859
G1 X131.482 Y153.685 E6.7862
G1 X131.39 Y153.34 E6.79333
G1 X131.197 Y152.458 E6.81135
G1 X131.099 Y151.75 E6.82561
G1 X131.077 Y151.535 E6.82992
G1 X131.025 Y150.672 E6.84718
G1 X131.011 Y149.854 E6.8635
G1 X131.015 Y149.27 E6.87516
G1 X131.071 Y148.368 E6.89319
G1 X131.128 Y147.918 E6.90225
G1 X131.183 Y147.554 E6.90959
G1 X131.358 Y146.668 E6.92761
G1 X131.499 Y146.147 E6.93839
G1 X131.565 Y145.927 E6.94297
G1 X132.02 Y144.703 E6.96903
G1 X132.115 Y144.49 E6.97368
G1 X132.519 Y143.683 E6.99169
G1 X132.79 Y143.224 E7.00233
G1 X132.955 Y142.961 E7.00853
G1 X133.468 Y142.218 E7.02654
G1 X133.781 Y141.827 E7.03654
G1 X133.932 Y141.647 E7.04123
G1 X134.542 Y140.981 E7.05925
G1 F2700 E2.05925
;MESH:plug.STL
G0 F6000 X141.275 Y147.715
G0 X141.971 Y148.41
G0 X143.229 Y147.923
G0 X143.976 Y147.925
G0 X144.677 Y148.195
G0 X145.236 Y148.696
G0 X145.58 Y149.365
G0 X145.644 Y149.964
G0 X145.593 Y151.816
;TYPE:WALL-INNER
G1 F2700 E7.05925
G1 F900 X145.613 Y151.795 E7.05983
G1 X145.636 Y151.771 E7.06049
G1 X145.757 Y151.623 E7.06431
G1 X145.871 Y151.467 E7.06816
G1 X145.981 Y151.289 E7.07234
G1 X146.069 Y151.113 E7.07627
G1 X146.146 Y150.934 E7.08015
G1 X146.214 Y150.737 E7.08431
G1 X146.262 Y150.546 E7.08824
G1 X146.298 Y150.357 E7.09208
G1 X146.32 Y150.156 E7.09612
G1 X146.327 Y149.957 E7.10009
G1 X146.32 Y149.76 E7.10403
G1 X146.298 Y149.559 E7.10806
G1 X146.262 Y149.37 E7.1119
G1 X146.214 Y149.18 E7.11581
G1 X146.149 Y148.985 E7.11991
G1 X146.071 Y148.803 E7.12386
G1 X145.981 Y148.625 E7.12785
G1 X145.874 Y148.452 E7.1319
G1 X145.759 Y148.291 E7.13585
G1 X145.637 Y148.148 E7.1396
G1 X145.615 Y148.122 E7.14028
G1 X145.608 Y148.114 E7.1405
G1 X145.594 Y148.098 E7.14092
G1 X145.62 Y148.081
G1 X145.732 Y148.007 E7.14225
G1 X145.895 Y147.883 E7.14565
G1 X146.047 Y147.751 E7.14967
G1 X146.194 Y147.605 E7.1538
G1 X146.328 Y147.449 E7.1579
G1 X146.449 Y147.29 E7.16189
G1 X146.564 Y147.117 E7.16604
G1 X146.664 Y146.937 E7.17015
G1 X146.752 Y146.754 E7.1742
G1 X146.828 Y146.561 E7.17834
G1 X146.891 Y146.364 E7.18247
G1 X146.938 Y146.163 E7.18658
G1 X146.971 Y145.966 E7.19057
G1 X146.993 Y145.764 E7.19463
G1 X147 Y145.557 E7.19876
G1 X157.8 Y145.557 E7.41428
G1 X157.8 Y154.357 E7.5899
G1 X146.996 Y154.357 E7.8055
G1 X146.995 Y154.165 E7.80934
G1 X146.971 Y153.947 E7.81371
G1 X146.938 Y153.751 E7.81768
G1 X146.891 Y153.548 E7.82184
G1 X146.826 Y153.348 E7.82603
G1 X146.751 Y153.161 E7.83005
G1 X146.666 Y152.979 E7.83406
G1 X146.564 Y152.798 E7.83821
G1 X146.449 Y152.623 E7.84239
G1 X146.327 Y152.464 E7.84639
G1 X146.197 Y152.312 E7.85038
G1 X146.048 Y152.163 E7.85458
G1 X145.892 Y152.028 E7.8587
G1 X145.729 Y151.905 E7.86205
G1 X145.62 Y151.834 E7.8636
G1 X145.603 Y151.823
G1 X145.593 Y151.816
G0 F6000 X145.35 Y152.135
G1 F900 X145.196 Y152.049 E7.86712
G1 X145.058 Y151.982 E7.87018
G1 X145.049 Y151.978 E7.87037
G1 X145.038 Y151.973 E7.87061
G1 X145.003 Y151.959 E7.87137
G1 X144.924 Y151.927 E7.87307
G1 X144.872 Y151.906 E7.87419
G1 X144.955 Y151.85 E7.87491
G1 X145.006 Y151.81 E7.87528
G1 X145.089 Y151.744 E7.87651
G1 X145.214 Y151.633 E7.8794
G1 X145.221 Y151.626 E7.8796
G1 X145.336 Y151.506 E7.88292
G1 X145.44 Y151.378 E7.88621
G1 X145.539 Y151.243 E7.88955
G1 X145.631 Y151.094 E7.89304
G1 X145.706 Y150.944 E7.89639
G1 X145.773 Y150.789 E7.89976
G1 X145.83 Y150.623 E7.90326
G1 X145.871 Y150.46 E7.90662
G1 X145.902 Y150.297 E7.90993
G1 X145.921 Y150.127 E7.91334
G1 X145.927 Y149.957 E7.91674
G1 X145.921 Y149.789 E7.92009
G1 X145.902 Y149.619 E7.92351
G1 X145.871 Y149.456 E7.92682
G1 X145.83 Y149.292 E7.93019
G1 X145.775 Y149.128 E7.93364
G1 X145.708 Y148.972 E7.93703
G1 X145.632 Y148.821 E7.9404
G1 X145.541 Y148.674 E7.94385
G1 X145.442 Y148.536 E7.94724
G1 X145.334 Y148.406 E7.95062
G1 X145.216 Y148.283 E7.95402
G1 X145.09 Y148.17 E7.95739
G1 X145.009 Y148.107 E7.95944
G1 X144.956 Y148.065 E7.96079
G1 X144.867 Y148.008 E7.9629
G1 X144.924 Y147.986
G1 X145.005 Y147.954 E7.96332
G1 X145.034 Y147.943
G1 X145.052 Y147.935
G1 X145.196 Y147.867 E7.96565
G1 X145.352 Y147.779 E7.96923
G1 X145.5 Y147.681 E7.97277
G1 X145.642 Y147.573 E7.97633
G1 X145.774 Y147.458 E7.97982
G1 X145.901 Y147.332 E7.98339
G1 X146.017 Y147.197 E7.98695
G1 X146.123 Y147.058 E7.99043
G1 X146.222 Y146.909 E7.994
G1 X146.309 Y146.753 E7.99757
G1 X146.385 Y146.594 E8.00109
G1 X146.451 Y146.427 E8.00467
G1 X146.505 Y146.257 E8.00823
G1 X146.546 Y146.084 E8.01178
G1 X146.575 Y145.911 E8.01528
G1 X146.594 Y145.735 E8.01881
G1 X146.6 Y145.568 E8.02214
G1 X146.6 Y145.157 E8.03035
G1 X158.2 Y145.157 E8.26184
G1 X158.2 Y154.757 E8.45342
G1 X146.597 Y154.757 E8.68497
G1 X146.595 Y154.187 E8.69634
G1 X146.575 Y154.002 E8.70005
G1 X146.546 Y153.83 E8.70354
G1 X146.505 Y153.655 E8.70712
G1 X146.45 Y153.484 E8.71071
G1 X146.384 Y153.321 E8.71422
G1 X146.31 Y153.162 E8.71772
G1 X146.222 Y153.006 E8.72129
G1 X146.123 Y152.855 E8.72489
G1 X146.016 Y152.716 E8.72839
G1 X145.903 Y152.584 E8.73186
G1 X145.775 Y152.456 E8.73547
G1 X145.64 Y152.339 E8.73904
G1 X145.499 Y152.232 E8.74257
G1 X145.35 Y152.135 E8.74612
G1 F2700 E3.74612
G0 F6000 X143.67 Y152.083
G0 X143.67 Y151.883
;TYPE:WALL-OUTER
G1 F2700 E8.74612
G1 F900 X143.811 Y151.872 E8.74894
G1 X143.95 Y151.851 E8.75175
G1 X144.086 Y151.821 E8.75453
G1 X144.222 Y151.78 E8.75736
G1 X144.353 Y151.73 E8.76016
G1 X144.481 Y151.67 E8.76298
G1 X144.603 Y151.601 E8.76578
G1 X144.722 Y151.524 E8.76861
G1 X144.832 Y151.437 E8.77141
G1 X144.937 Y151.344 E8.7742
G1 X145.036 Y151.241 E8.77706
G1 X145.124 Y151.133 E8.77984
G1 X145.207 Y151.02 E8.78263
G1 X145.281 Y150.899 E8.78546
G1 X145.344 Y150.774 E8.78826
G1 X145.4 Y150.645 E8.79106
G1 X145.446 Y150.51 E8.79391
G1 X145.48 Y150.374 E8.79671
G1 X145.506 Y150.237 E8.79949
G1 X145.522 Y150.097 E8.8023
G1 X145.527 Y149.957 E8.8051
G1 X145.522 Y149.819 E8.80785
G1 X145.506 Y149.679 E8.81067
G1 X145.48 Y149.541 E8.81347
G1 X145.446 Y149.404 E8.81628
G1 X145.401 Y149.271 E8.81909
G1 X145.345 Y149.141 E8.82191
G1 X145.282 Y149.016 E8.82471
G1 X145.208 Y148.895 E8.82754
G1 X145.126 Y148.781 E8.83034
G1 X145.036 Y148.673 E8.83314
G1 X144.938 Y148.571 E8.83597
G1 X144.833 Y148.477 E8.83878
G1 X144.723 Y148.391 E8.84157
G1 X144.605 Y148.314 E8.84438
G1 X144.482 Y148.243 E8.84721
G1 X144.354 Y148.184 E8.85002
G1 X144.222 Y148.133 E8.85285
G1 X144.088 Y148.093 E8.85564
G1 X143.951 Y148.062 E8.85844
G1 X143.811 Y148.041 E8.86127
G1 X143.67 Y148.031 E8.86409
G1 X143.532 Y148.031 E8.86684
