;FLAVOR:Marlin
;TIME:12775
;Filament used: 4.73324m
;Layer height: 0.12
;MINX:80.457
;MINY:86.774
;MINZ:0.12
;MAXX:219.543
;MAXY:189.16
;MAXZ:1.44
;Generated with Cura_SteamEngine 4.5.0
M140 S80
M105
M190 S80
M104 S200
M105
M109 S200
M82 ;absolute extrusion mode
M201 X500.00 Y500.00 Z100.00 E5000.00 ;Setup machine max acceleration
M203 X500.00 Y500.00 Z10.00 E50.00 ;Setup machine max feedrate
M204 P500.00 R1000.00 T500.00 ;Setup Print/Retract/Travel acceleration
M205 X8.00 Y8.00 Z0.40 E5.00 ;Setup Jerk
M220 S100 ;Reset Feedrate
M221 S100 ;Reset Flowrate

G28 ;Home
M420 S1 Z2 ;Enable ABL using saved Mesh and Fade Height

G92 E0 ;Reset Extruder
G1 Z2.0 F3000 ;Move Z Axis up
G1 X10.1 Y20 Z0.28 F5000.0 ;Move to start position
G1 X10.1 Y200.0 Z0.28 F1500.0 E15 ;Draw the first line
G1 X10.4 Y200.0 Z0.28 F5000.0 ;Move to side a little
G1 X10.4 Y20 Z0.28 F1500.0 E30 ;Draw the second line
G92 E0 ;Reset Extruder
G1 Z2.0 F3000 ;Move Z Axis up

G92 E0
G92 E0
G1 F2700 E-5
;LAYER_COUNT:12
;LAYER:0
M107
G0 F6000 X85.281 Y90.225 Z0.12
;TYPE:SKIRT
G1 F2700 E0
G1 F900 X85.972 Y89.591 E0.01871
G1 X86.766 Y88.983 E0.03867
G1 X87.039 Y88.793 E0.04531
G1 X87.831 Y88.291 E0.06402
G1 X88.663 Y87.858 E0.08274
G1 X89.529 Y87.497 E0.10146
G1 X90.422 Y87.211 E0.12018
G1 X91.337 Y87.003 E0.1389
G1 X92.265 Y86.873 E0.1576
G1 X92.843 Y86.832 E0.16916
G1 X93.576 Y86.8 E0.18381
G1 X93.945 Y86.791 E0.19117
G1 X95.645 Y86.774 E0.2251
G1 X205.911 Y86.774 E2.42558
G1 X206.068 Y86.775 E2.42871
G1 X206.769 Y86.785 E2.4427
G1 X207.705 Y86.838 E2.46141
G1 X208.634 Y86.971 E2.48014
G1 X209.547 Y87.183 E2.49884
G1 X210.44 Y87.471 E2.51757
G1 X211.304 Y87.835 E2.53628
G1 X212.135 Y88.271 E2.555
G1 X212.714 Y88.631 E2.56861
G1 X212.972 Y88.803 E2.5748
G1 X213.915 Y89.508 E2.59829
G1 X214.198 Y89.744 E2.60565
G1 X215.187 Y90.679 E2.63281
G1 X215.389 Y90.895 E2.63871
G1 X216.191 Y91.856 E2.66369
G1 X216.366 Y92.092 E2.66955
G1 X216.804 Y92.729 E2.68498
G1 X216.929 Y92.925 E2.68962
G1 X217.403 Y93.743 E2.70848
G1 X217.563 Y94.049 E2.71538
G1 X217.985 Y94.953 E2.73528
G1 X218.119 Y95.278 E2.7423
G1 X218.512 Y96.4 E2.76602
G1 X218.66 Y96.909 E2.7766
G1 X218.915 Y97.987 E2.79871
G1 X218.999 Y98.443 E2.80796
G1 X219.107 Y99.161 E2.82245
G1 X219.135 Y99.401 E2.82727
G1 X219.172 Y99.773 E2.83473
G1 X219.206 Y100.186 E2.843
G1 X219.238 Y100.744 E2.85416
G1 X219.282 Y102.253 E2.88428
G1 X219.365 Y110.568 E3.05023
G1 X219.435 Y118.416 E3.20685
G1 X219.487 Y125.82 E3.35461
G1 X219.525 Y133.981 E3.51747
G1 X219.54 Y140.029 E3.63817
G1 X219.543 Y146.62 E3.7697
G1 X219.532 Y153.242 E3.90185
G1 X219.513 Y158.735 E4.01146
G1 X219.484 Y164.999 E4.13647
G1 X219.437 Y172.149 E4.27916
G1 X219.403 Y173.493 E4.30599
G1 X219.384 Y173.872 E4.31356
G1 X219.361 Y174.225 E4.32062
G1 X219.337 Y174.516 E4.32645
G1 X219.224 Y175.42 E4.34463
G1 X219.093 Y176.206 E4.36053
G1 X218.853 Y177.3 E4.38288
G1 X218.687 Y177.907 E4.39544
G1 X218.356 Y178.923 E4.41676
G1 X218.21 Y179.306 E4.42494
G1 X217.945 Y179.94 E4.43866
G1 X217.78 Y180.303 E4.44661
G1 X217.517 Y180.842 E4.45858
G1 X217.399 Y181.068 E4.46367
G1 X217.16 Y181.502 E4.47356
G1 X216.815 Y182.096 E4.48727
G1 X216.51 Y182.59 E4.49885
G1 X216.342 Y182.847 E4.50498
G1 X215.954 Y183.411 E4.51864
G1 X215.628 Y183.855 E4.52963
G1 X214.873 Y184.829 E4.55423
G1 X214.509 Y185.274 E4.5657
G1 X213.872 Y185.962 E4.58441
G1 X213.178 Y186.593 E4.60313
G1 X212.434 Y187.163 E4.62183
G1 X211.643 Y187.668 E4.64056
G1 X210.812 Y188.103 E4.65928
G1 X209.947 Y188.466 E4.678
G1 X209.055 Y188.754 E4.6967
G1 X208.141 Y188.964 E4.71542
G1 X207.212 Y189.096 E4.73415
G1 X206.319 Y189.148 E4.752
G1 X205.551 Y189.16 E4.76732
G1 X163.71 Y189.157 E5.60231
G1 X162.015 Y189.132 E5.63614
G1 X160.94 Y189.102 E5.6576
G1 X158.378 Y189.104 E5.70872
G1 X157.102 Y189.132 E5.73419
G1 X156.064 Y189.158 E5.75492
G1 X97.98 Y189.158 E6.91404
G1 X94.379 Y189.158 E6.98591
G1 X93.739 Y189.149 E6.99868
G1 X92.803 Y189.096 E7.01739
G1 X91.875 Y188.963 E7.0361
G1 X90.961 Y188.752 E7.05482
G1 X90.068 Y188.463 E7.07355
G1 X89.204 Y188.1 E7.09225
G1 X88.373 Y187.664 E7.11098
G1 X87.583 Y187.159 E7.12969
G1 X86.838 Y186.589 E7.14841
G1 X85.923 Y185.73 E7.17345
G1 X85.729 Y185.526 E7.17907
G1 X85.051 Y184.743 E7.19974
G1 X84.618 Y184.192 E7.21373
G1 X84.304 Y183.772 E7.22419
G1 X83.687 Y182.887 E7.24572
G1 X83.53 Y182.647 E7.25144
G1 X83.278 Y182.25 E7.26083
G1 X83.006 Y181.798 E7.27135
G1 X82.805 Y181.445 E7.27946
G1 X82.525 Y180.921 E7.29132
G1 X82.369 Y180.609 E7.29828
G1 X82.152 Y180.149 E7.30843
G1 X82.058 Y179.937 E7.31306
G1 X81.915 Y179.599 E7.32038
G1 X81.755 Y179.203 E7.3289
G1 X81.543 Y178.634 E7.34102
G1 X81.456 Y178.379 E7.3464
G1 X81.27 Y177.778 E7.35895
G1 X81.177 Y177.444 E7.36587
G1 X81.007 Y176.743 E7.38027
G1 X80.937 Y176.408 E7.3871
G1 X80.845 Y175.915 E7.3971
G1 X80.795 Y175.606 E7.40335
G1 X80.711 Y174.972 E7.41611
G1 X80.672 Y174.592 E7.42374
G1 X80.632 Y174.087 E7.43385
G1 X80.605 Y173.607 E7.44344
G1 X80.591 Y173.256 E7.45045
G1 X80.562 Y172.004 E7.47544
G1 X80.544 Y169.69 E7.52162
G1 X80.51 Y163.554 E7.64407
G1 X80.477 Y156.054 E7.79375
G1 X80.462 Y149.948 E7.9156
G1 X80.457 Y143.167 E8.05092
G1 X80.468 Y135.882 E8.1963
G1 X80.487 Y131.001 E8.29371
G1 X80.537 Y121.919 E8.47495
G1 X80.584 Y115.91 E8.59487
G1 X80.657 Y108.045 E8.75183
G1 X80.726 Y101.841 E8.87565
G1 X80.736 Y101.443 E8.88359
G1 X80.749 Y101.129 E8.88986
G1 X80.802 Y100.142 E8.90959
G1 X80.867 Y99.402 E8.92441
G1 X80.915 Y99.008 E8.93233
G1 X81.009 Y98.383 E8.94495
G1 X81.05 Y98.156 E8.94955
G1 X81.226 Y97.353 E8.96596
G1 X81.355 Y96.855 E8.97622
G1 X81.609 Y96.015 E8.99373
G1 X81.681 Y95.807 E8.99813
G1 X81.957 Y95.091 E9.01344
G1 X82.09 Y94.779 E9.02021
G1 X82.516 Y93.893 E9.03983
G1 X82.641 Y93.66 E9.0451
G1 X82.989 Y93.058 E9.05898
G1 X83.12 Y92.847 E9.06394
G1 X83.607 Y92.127 E9.08128
G1 X83.755 Y91.926 E9.08626
G1 X84.343 Y91.195 E9.10499
G1 X84.844 Y90.661 E9.1196
G1 X85.281 Y90.225 E9.13192
G0 F6000 X85.563 Y90.508
G1 F900 X86.243 Y89.887 E9.15029
G1 X86.995 Y89.312 E9.16919
G1 X87.268 Y89.122 E9.17582
G1 X88.046 Y88.629 E9.1942
G1 X88.863 Y88.206 E9.21256
G1 X89.714 Y87.855 E9.23093
G1 X90.593 Y87.58 E9.24931
G1 X91.492 Y87.381 E9.26769
G1 X92.861 Y87.232 E9.29517
G1 X93.594 Y87.2 E9.30981
G1 X93.949 Y87.191 E9.3169
G1 X95.645 Y87.174 E9.35075
G1 X205.911 Y87.174 E11.55122
G1 X206.062 Y87.175 E11.55424
G1 X206.763 Y87.185 E11.56823
G1 X207.682 Y87.238 E11.5866
G1 X208.593 Y87.371 E11.60497
G1 X209.489 Y87.582 E11.62334
G1 X210.364 Y87.87 E11.64172
G1 X211.21 Y88.233 E11.66009
G1 X212.021 Y88.668 E11.67846
G1 X212.492 Y88.964 E11.68956
G1 X212.75 Y89.136 E11.69575
G1 X213.659 Y89.815 E11.71839
G1 X213.942 Y90.051 E11.72574
G1 X214.895 Y90.952 E11.75192
G1 X215.097 Y91.168 E11.75782
G1 X215.87 Y92.094 E11.78189
G1 X216.045 Y92.33 E11.78775
G1 X216.467 Y92.944 E11.80262
G1 X216.592 Y93.14 E11.80726
G1 X217.048 Y93.928 E11.82543
G1 X217.208 Y94.234 E11.83232
G1 X217.615 Y95.106 E11.85152
G1 X217.749 Y95.431 E11.85854
G1 X218.127 Y96.511 E11.88137
G1 X218.275 Y97.02 E11.89195
G1 X218.522 Y98.06 E11.91328
G1 X218.606 Y98.516 E11.92254
G1 X218.71 Y99.208 E11.9365
G1 X218.738 Y99.448 E11.94132
G1 X218.773 Y99.806 E11.9485
G1 X218.807 Y100.219 E11.95677
G1 X218.838 Y100.756 E11.96751
G1 X218.882 Y102.257 E11.99747
G1 X218.965 Y110.572 E12.16342
G1 X219.035 Y118.42 E12.32004
G1 X219.087 Y125.822 E12.46776
G1 X219.125 Y133.982 E12.6306
G1 X219.14 Y140.03 E12.75129
G1 X219.143 Y146.62 E12.88281
G1 X219.132 Y153.242 E13.01495
G1 X219.113 Y158.734 E13.12455
G1 X219.084 Y164.997 E13.24954
G1 X219.037 Y172.14 E13.39209
G1 X219.004 Y173.473 E13.4187
G1 X218.985 Y173.852 E13.42627
G1 X218.938 Y174.483 E13.4389
G1 X218.83 Y175.355 E13.45643
G1 X218.699 Y176.141 E13.47234
G1 X218.468 Y177.194 E13.49385
G1 X218.302 Y177.801 E13.50641
G1 X217.982 Y178.781 E13.52698
G1 X217.836 Y179.164 E13.53516
G1 X217.581 Y179.774 E13.54835
G1 X217.416 Y180.137 E13.55631
G1 X217.162 Y180.657 E13.56786
G1 X217.044 Y180.883 E13.57295
G1 X216.814 Y181.301 E13.58247
G1 X216.469 Y181.895 E13.59618
G1 X216.175 Y182.371 E13.60734
G1 X215.827 Y182.895 E13.6199
G1 X215.626 Y183.183 E13.6269
G1 X215.312 Y183.61 E13.63748
G1 X214.557 Y184.584 E13.66207
G1 X214.205 Y185.015 E13.67318
G1 X213.578 Y185.69 E13.69156
G1 X212.896 Y186.308 E13.70993
G1 X212.163 Y186.865 E13.7283
G1 X211.384 Y187.355 E13.74667
G1 X210.565 Y187.777 E13.76505
G1 X209.713 Y188.125 E13.78342
G1 X208.834 Y188.399 E13.80179
G1 X207.934 Y188.595 E13.82018
G1 X207.021 Y188.712 E13.83855
G1 X206.312 Y188.748 E13.85271
G1 X205.551 Y188.76 E13.8679
G1 X163.716 Y188.757 E14.70276
G1 X162.026 Y188.732 E14.73649
G1 X160.951 Y188.702 E14.75795
G1 X158.37 Y188.704 E14.80946
G1 X157.082 Y188.732 E14.83517
G1 X156.064 Y188.758 E14.85549
G1 X97.98 Y188.758 E16.01462
G1 X94.385 Y188.758 E16.08636
G1 X93.745 Y188.749 E16.09914
G1 X92.826 Y188.696 E16.11751
G1 X91.915 Y188.564 E16.13588
G1 X91.019 Y188.353 E16.15425
G1 X90.144 Y188.065 E16.17263
G1 X89.298 Y187.702 E16.191
G1 X88.487 Y187.267 E16.20937
G1 X87.716 Y186.763 E16.22775
G1 X86.992 Y186.195 E16.24611
G1 X86.213 Y185.455 E16.26755
G1 X86.019 Y185.251 E16.27317
G1 X85.366 Y184.496 E16.29309
G1 X84.933 Y183.945 E16.30708
G1 X84.63 Y183.54 E16.31717
G1 X84.146 Y182.853 E16.33394
G1 X83.868 Y182.433 E16.34399
G1 X83.616 Y182.036 E16.35338
G1 X83.354 Y181.6 E16.36353
G1 X83.153 Y181.247 E16.37163
G1 X82.883 Y180.742 E16.38306
G1 X82.727 Y180.43 E16.39002
G1 X82.518 Y179.987 E16.3998
G1 X82.424 Y179.775 E16.40443
G1 X82.286 Y179.449 E16.41149
G1 X82.126 Y179.053 E16.42001
G1 X81.922 Y178.505 E16.43168
G1 X81.835 Y178.25 E16.43706
G1 X81.655 Y177.67 E16.44918
G1 X81.562 Y177.336 E16.4561
G1 X81.398 Y176.661 E16.46996
G1 X81.328 Y176.326 E16.47679
G1 X81.24 Y175.851 E16.48643
G1 X81.19 Y175.542 E16.49268
G1 X81.109 Y174.931 E16.50498
G1 X81.07 Y174.551 E16.5126
G1 X81.032 Y174.064 E16.52235
G1 X81.005 Y173.584 E16.53194
G1 X80.991 Y173.246 E16.53869
G1 X80.962 Y172 E16.56356
G1 X80.944 Y169.686 E16.60974
G1 X80.91 Y163.552 E16.73216
G1 X80.877 Y156.053 E16.88181
G1 X80.862 Y149.947 E17.00366
G1 X80.857 Y143.167 E17.13896
G1 X80.868 Y135.883 E17.28432
G1 X80.887 Y131.003 E17.38171
G1 X80.937 Y121.922 E17.56293
G1 X80.984 Y115.913 E17.68285
G1 X81.057 Y108.048 E17.83982
G1 X81.126 Y101.851 E17.96349
G1 X81.148 Y101.151 E17.97747
G1 X81.201 Y100.164 E17.99719
G1 X81.264 Y99.45 E18.0115
G1 X81.312 Y99.056 E18.01942
G1 X81.403 Y98.454 E18.03157
G1 X81.444 Y98.227 E18.03617
G1 X81.614 Y97.453 E18.05198
G1 X81.743 Y96.955 E18.06225
G1 X81.987 Y96.146 E18.07911
G1 X82.059 Y95.938 E18.08351
G1 X82.325 Y95.248 E18.09826
G1 X82.458 Y94.936 E18.10503
G1 X82.868 Y94.082 E18.12394
G1 X82.993 Y93.849 E18.12921
G1 X83.328 Y93.269 E18.14258
G1 X83.459 Y93.058 E18.14754
G1 X83.929 Y92.364 E18.16426
G1 X84.077 Y92.163 E18.16924
G1 X84.655 Y91.446 E18.18762
G1 X85.126 Y90.944 E18.20136
G1 X85.563 Y90.508 E18.21368
G0 F6000 X85.846 Y90.791
G1 F900 X86.513 Y90.182 E18.2317
G1 X87.223 Y89.64 E18.24953
G1 X87.496 Y89.45 E18.25617
G1 X88.26 Y88.967 E18.2742
G1 X89.063 Y88.554 E18.29222
G1 X89.899 Y88.214 E18.31023
G1 X90.763 Y87.949 E18.32827
G1 X91.646 Y87.761 E18.34628
G1 X92.878 Y87.632 E18.371
G1 X93.611 Y87.6 E18.38565
G1 X93.953 Y87.591 E18.39247
G1 X95.645 Y87.574 E18.42624
G1 X205.911 Y87.574 E20.62672
G1 X206.056 Y87.575 E20.62961
G1 X206.757 Y87.585 E20.6436
G1 X207.659 Y87.638 E20.66163
G1 X208.552 Y87.77 E20.67965
G1 X209.431 Y87.981 E20.69769
G1 X210.287 Y88.269 E20.71571
G1 X211.114 Y88.631 E20.73373
G1 X212.27 Y89.297 E20.76035
G1 X212.528 Y89.469 E20.76654
G1 X213.403 Y90.122 E20.78833
G1 X213.686 Y90.358 E20.79568
G1 X214.603 Y91.225 E20.82087
G1 X214.805 Y91.441 E20.82677
G1 X215.548 Y92.333 E20.84993
G1 X215.723 Y92.569 E20.8558
G1 X216.13 Y93.159 E20.8701
G1 X216.255 Y93.355 E20.87474
G1 X216.694 Y94.114 E20.89224
G1 X216.854 Y94.42 E20.89913
G1 X217.245 Y95.258 E20.91758
G1 X217.379 Y95.583 E20.9246
G1 X217.743 Y96.623 E20.94659
G1 X217.891 Y97.132 E20.95717
G1 X218.128 Y98.132 E20.97767
G1 X218.212 Y98.588 E20.98693
G1 X218.312 Y99.254 E21.00037
G1 X218.34 Y99.494 E21.00519
G1 X218.375 Y99.839 E21.01211
G1 X218.409 Y100.252 E21.02038
G1 X218.438 Y100.769 E21.03071
G1 X218.482 Y102.261 E21.0605
G1 X218.565 Y110.576 E21.22644
G1 X218.635 Y118.423 E21.38304
G1 X218.687 Y125.825 E21.53076
G1 X218.725 Y133.984 E21.69359
G1 X218.74 Y140.031 E21.81426
G1 X218.743 Y146.62 E21.94575
G1 X218.732 Y153.241 E22.07788
G1 X218.713 Y158.732 E22.18746
G1 X218.684 Y164.995 E22.31245
G1 X218.637 Y172.131 E22.45486
G1 X218.604 Y173.453 E22.48125
G1 X218.585 Y173.832 E22.48882
G1 X218.539 Y174.45 E22.50119
G1 X218.435 Y175.289 E22.51806
G1 X218.304 Y176.075 E22.53396
G1 X218.082 Y177.089 E22.55467
G1 X217.916 Y177.696 E22.56723
G1 X217.608 Y178.638 E22.58701
G1 X217.462 Y179.021 E22.59519
G1 X217.217 Y179.609 E22.6079
G1 X217.052 Y179.972 E22.61586
G1 X216.808 Y180.472 E22.62696
G1 X216.69 Y180.698 E22.63205
G1 X216.468 Y181.1 E22.64121
G1 X216.123 Y181.694 E22.65492
G1 X215.841 Y182.152 E22.66566
G1 X215.673 Y182.409 E22.67178
G1 X215.298 Y182.954 E22.68499
G1 X214.996 Y183.365 E22.69516
G1 X214.241 Y184.339 E22.71976
G1 X213.9 Y184.756 E22.73051
G1 X213.285 Y185.418 E22.74854
G1 X212.614 Y186.022 E22.76656
G1 X211.892 Y186.565 E22.78458
G1 X211.125 Y187.042 E22.80261
G1 X210.319 Y187.449 E22.82063
G1 X209.48 Y187.783 E22.83865
G1 X208.615 Y188.042 E22.85667
G1 X207.73 Y188.223 E22.87469
G1 X206.833 Y188.326 E22.89271
G1 X206.305 Y188.348 E22.90326
G1 X205.552 Y188.36 E22.91829
G1 X163.722 Y188.357 E23.75305
G1 X162.038 Y188.332 E23.78666
G1 X160.963 Y188.302 E23.80812
G1 X158.407 Y188.304 E23.85913
G1 X156.064 Y188.358 E23.9059
G1 X97.98 Y188.358 E25.06503
G1 X94.391 Y188.358 E25.13665
G1 X93.751 Y188.349 E25.14942
G1 X92.849 Y188.296 E25.16745
G1 X91.956 Y188.164 E25.18547
G1 X91.077 Y187.953 E25.20351
G1 X90.221 Y187.666 E25.22153
G1 X89.394 Y187.304 E25.23954
G1 X88.602 Y186.87 E25.25756
G1 X87.851 Y186.368 E25.27559
G1 X87.148 Y185.801 E25.29361
G1 X86.503 Y185.179 E25.3115
G1 X86.309 Y184.975 E25.31711
G1 X85.68 Y184.248 E25.3363
G1 X85.247 Y183.697 E25.35028
G1 X84.956 Y183.308 E25.35998
G1 X84.478 Y182.63 E25.37653
G1 X84.205 Y182.218 E25.3864
G1 X83.953 Y181.821 E25.39578
G1 X83.701 Y181.402 E25.40554
G1 X83.5 Y181.049 E25.41364
G1 X83.241 Y180.564 E25.42462
G1 X83.085 Y180.252 E25.43158
G1 X82.883 Y179.824 E25.44102
G1 X82.789 Y179.612 E25.44565
G1 X82.657 Y179.299 E25.45243
G1 X82.497 Y178.903 E25.46095
G1 X82.3 Y178.376 E25.47218
G1 X82.213 Y178.121 E25.47756
G1 X82.041 Y177.563 E25.48921
G1 X81.948 Y177.229 E25.49613
G1 X81.79 Y176.579 E25.50948
G1 X81.72 Y176.244 E25.51631
G1 X81.635 Y175.787 E25.52558
G1 X81.585 Y175.478 E25.53183
G1 X81.507 Y174.89 E25.54367
G1 X81.468 Y174.51 E25.55129
G1 X81.431 Y174.042 E25.56066
G1 X81.404 Y173.562 E25.57025
G1 X81.391 Y173.237 E25.57674
G1 X81.362 Y171.997 E25.6015
G1 X81.344 Y169.683 E25.64768
G1 X81.31 Y163.55 E25.77007
G1 X81.277 Y156.051 E25.91972
G1 X81.262 Y149.946 E26.04155
G1 X81.257 Y143.167 E26.17683
G1 X81.268 Y135.884 E26.32217
G1 X81.287 Y131.004 E26.41956
G1 X81.337 Y121.924 E26.60076
G1 X81.384 Y115.916 E26.72066
G1 X81.457 Y108.052 E26.87761
G1 X81.526 Y101.861 E27.00116
G1 X81.548 Y101.172 E27.01492
G1 X81.601 Y100.185 E27.03464
G1 X81.661 Y99.498 E27.04841
G1 X81.709 Y99.104 E27.05633
G1 X81.796 Y98.525 E27.06801
G1 X81.837 Y98.298 E27.07261
G1 X82.001 Y97.553 E27.08784
G1 X82.13 Y97.055 E27.0981
G1 X82.365 Y96.276 E27.11434
G1 X82.437 Y96.068 E27.11873
G1 X82.693 Y95.405 E27.13292
G1 X82.826 Y95.093 E27.13969
G1 X83.221 Y94.271 E27.15788
G1 X83.346 Y94.038 E27.16316
G1 X83.668 Y93.48 E27.17602
G1 X83.799 Y93.269 E27.18097
G1 X84.251 Y92.601 E27.19707
G1 X84.399 Y92.4 E27.20205
G1 X84.967 Y91.697 E27.22009
G1 X85.409 Y91.227 E27.23296
G1 X85.846 Y90.791 E27.24528
G1 F2700 E22.24528
;MESH:top.STL
G0 F6000 X95.979 Y151.981
G0 X95.844 Y150.126
G0 X97.146 Y151.476
G0 X97.373 Y152.029
G0 X97.364 Y152.455
G0 X97.031 Y153.929
;TYPE:WALL-INNER
G1 F2700 E27.24528
